( Made using CamBam - http://www.cambam.co.uk )
( BarBus 40.5mm 5/4/2024 2:25:43 PM )
( Post processor: Mach3 )
( T0 : 3.0 )
G21 G90 G64 G40
G91.1
G0 Z3.0
( T0 : 3.0 )
T0 M6
( Poche1 )
G17
M3 S1000
G0 X4.1 Y4.0
G0 Z1.0
G1 F300.0 Z-0.05
G2 F200.0 X3.95 Y3.9134 I-0.1 J0.0
G2 Y4.0866 I0.05 J0.0866
G2 X4.1 Y4.0 I0.05 J-0.0866
G1 F300.0 Z-0.1
G2 F200.0 X3.95 Y3.9134 I-0.1 J0.0
G2 Y4.0866 I0.05 J0.0866
G2 X4.1 Y4.0 I0.05 J-0.0866
G1 F300.0 Z-0.15
G2 F200.0 X3.95 Y3.9134 I-0.1 J0.0
G2 Y4.0866 I0.05 J0.0866
G2 X4.1 Y4.0 I0.05 J-0.0866
G1 F300.0 Z-0.2
G2 F200.0 X3.95 Y3.9134 I-0.1 J0.0
G2 Y4.0866 I0.05 J0.0866
G2 X4.1 Y4.0 I0.05 J-0.0866
G1 F300.0 Z-0.25
G2 F200.0 X3.95 Y3.9134 I-0.1 J0.0
G2 Y4.0866 I0.05 J0.0866
G2 X4.1 Y4.0 I0.05 J-0.0866
G1 F300.0 Z-0.3
G2 F200.0 X3.95 Y3.9134 I-0.1 J0.0
G2 Y4.0866 I0.05 J0.0866
G2 X4.1 Y4.0 I0.05 J-0.0866
G1 F300.0 Z-0.35
G2 F200.0 X3.95 Y3.9134 I-0.1 J0.0
G2 Y4.0866 I0.05 J0.0866
G2 X4.1 Y4.0 I0.05 J-0.0866
G1 F300.0 Z-0.4
G2 F200.0 X3.95 Y3.9134 I-0.1 J0.0
G2 Y4.0866 I0.05 J0.0866
G2 X4.1 Y4.0 I0.05 J-0.0866
G1 F300.0 Z-0.45
G2 F200.0 X3.95 Y3.9134 I-0.1 J0.0
G2 Y4.0866 I0.05 J0.0866
G2 X4.1 Y4.0 I0.05 J-0.0866
G1 F300.0 Z-0.5
G2 F200.0 X3.95 Y3.9134 I-0.1 J0.0
G2 Y4.0866 I0.05 J0.0866
G2 X4.1 Y4.0 I0.05 J-0.0866
G1 F300.0 Z-0.55
G2 F200.0 X3.95 Y3.9134 I-0.1 J0.0
G2 Y4.0866 I0.05 J0.0866
G2 X4.1 Y4.0 I0.05 J-0.0866
G1 F300.0 Z-0.6
G2 F200.0 X3.95 Y3.9134 I-0.1 J0.0
G2 Y4.0866 I0.05 J0.0866
G2 X4.1 Y4.0 I0.05 J-0.0866
G1 F300.0 Z-0.65
G2 F200.0 X3.95 Y3.9134 I-0.1 J0.0
G2 Y4.0866 I0.05 J0.0866
G2 X4.1 Y4.0 I0.05 J-0.0866
G1 F300.0 Z-0.7
G2 F200.0 X3.95 Y3.9134 I-0.1 J0.0
G2 Y4.0866 I0.05 J0.0866
G2 X4.1 Y4.0 I0.05 J-0.0866
G1 F300.0 Z-0.75
G2 F200.0 X3.95 Y3.9134 I-0.1 J0.0
G2 Y4.0866 I0.05 J0.0866
G2 X4.1 Y4.0 I0.05 J-0.0866
G1 F300.0 Z-0.8
G2 F200.0 X3.95 Y3.9134 I-0.1 J0.0
G2 Y4.0866 I0.05 J0.0866
G2 X4.1 Y4.0 I0.05 J-0.0866
G1 F300.0 Z-0.85
G2 F200.0 X3.95 Y3.9134 I-0.1 J0.0
G2 Y4.0866 I0.05 J0.0866
G2 X4.1 Y4.0 I0.05 J-0.0866
G1 F300.0 Z-0.9
G2 F200.0 X3.95 Y3.9134 I-0.1 J0.0
G2 Y4.0866 I0.05 J0.0866
G2 X4.1 Y4.0 I0.05 J-0.0866
G1 F300.0 Z-0.95
G2 F200.0 X3.95 Y3.9134 I-0.1 J0.0
G2 Y4.0866 I0.05 J0.0866
G2 X4.1 Y4.0 I0.05 J-0.0866
G1 F300.0 Z-1.0
G2 F200.0 X3.95 Y3.9134 I-0.1 J0.0
G2 Y4.0866 I0.05 J0.0866
G2 X4.1 Y4.0 I0.05 J-0.0866
G1 F300.0 Z-1.05
G2 F200.0 X3.95 Y3.9134 I-0.1 J0.0
G2 Y4.0866 I0.05 J0.0866
G2 X4.1 Y4.0 I0.05 J-0.0866
G1 F300.0 Z-1.1
G2 F200.0 X3.95 Y3.9134 I-0.1 J0.0
G2 Y4.0866 I0.05 J0.0866
G2 X4.1 Y4.0 I0.05 J-0.0866
G1 F300.0 Z-1.15
G2 F200.0 X3.95 Y3.9134 I-0.1 J0.0
G2 Y4.0866 I0.05 J0.0866
G2 X4.1 Y4.0 I0.05 J-0.0866
G1 F300.0 Z-1.2
G2 F200.0 X3.95 Y3.9134 I-0.1 J0.0
G2 Y4.0866 I0.05 J0.0866
G2 X4.1 Y4.0 I0.05 J-0.0866
G1 F300.0 Z-1.25
G2 F200.0 X3.95 Y3.9134 I-0.1 J0.0
G2 Y4.0866 I0.05 J0.0866
G2 X4.1 Y4.0 I0.05 J-0.0866
G1 F300.0 Z-1.3
G2 F200.0 X3.95 Y3.9134 I-0.1 J0.0
G2 Y4.0866 I0.05 J0.0866
G2 X4.1 Y4.0 I0.05 J-0.0866
G1 F300.0 Z-1.35
G2 F200.0 X3.95 Y3.9134 I-0.1 J0.0
G2 Y4.0866 I0.05 J0.0866
G2 X4.1 Y4.0 I0.05 J-0.0866
G1 F300.0 Z-1.4
G2 F200.0 X3.95 Y3.9134 I-0.1 J0.0
G2 Y4.0866 I0.05 J0.0866
G2 X4.1 Y4.0 I0.05 J-0.0866
G1 F300.0 Z-1.45
G2 F200.0 X3.95 Y3.9134 I-0.1 J0.0
G2 Y4.0866 I0.05 J0.0866
G2 X4.1 Y4.0 I0.05 J-0.0866
G1 F300.0 Z-1.5
G2 F200.0 X3.95 Y3.9134 I-0.1 J0.0
G2 Y4.0866 I0.05 J0.0866
G2 X4.1 Y4.0 I0.05 J-0.0866
G1 F300.0 Z-1.55
G2 F200.0 X3.95 Y3.9134 I-0.1 J0.0
G2 Y4.0866 I0.05 J0.0866
G2 X4.1 Y4.0 I0.05 J-0.0866
G1 F300.0 Z-1.6
G2 F200.0 X3.95 Y3.9134 I-0.1 J0.0
G2 Y4.0866 I0.05 J0.0866
G2 X4.1 Y4.0 I0.05 J-0.0866
G1 F300.0 Z-1.65
G2 F200.0 X3.95 Y3.9134 I-0.1 J0.0
G2 Y4.0866 I0.05 J0.0866
G2 X4.1 Y4.0 I0.05 J-0.0866
G1 F300.0 Z-1.7
G2 F200.0 X3.95 Y3.9134 I-0.1 J0.0
G2 Y4.0866 I0.05 J0.0866
G2 X4.1 Y4.0 I0.05 J-0.0866
G1 F300.0 Z-1.75
G2 F200.0 X3.95 Y3.9134 I-0.1 J0.0
G2 Y4.0866 I0.05 J0.0866
G2 X4.1 Y4.0 I0.05 J-0.0866
G1 F300.0 Z-1.8
G2 F200.0 X3.95 Y3.9134 I-0.1 J0.0
G2 Y4.0866 I0.05 J0.0866
G2 X4.1 Y4.0 I0.05 J-0.0866
G1 F300.0 Z-1.85
G2 F200.0 X3.95 Y3.9134 I-0.1 J0.0
G2 Y4.0866 I0.05 J0.0866
G2 X4.1 Y4.0 I0.05 J-0.0866
G0 Z3.0
G0 X4.0002 Y44.4
G0 Z1.0
G1 F300.0 Z-0.05
G2 F200.0 X3.95 Y44.4134 I-0.0002 J0.1
G2 Y44.5866 I0.05 J0.0866
G2 X4.1 Y44.5 I0.05 J-0.0866
G2 X4.0002 Y44.4 I-0.1 J0.0
G1 F300.0 Z-0.1
G2 F200.0 X3.95 Y44.4134 I-0.0002 J0.1
G2 Y44.5866 I0.05 J0.0866
G2 X4.1 Y44.5 I0.05 J-0.0866
G2 X4.0002 Y44.4 I-0.1 J0.0
G1 F300.0 Z-0.15
G2 F200.0 X3.95 Y44.4134 I-0.0002 J0.1
G2 Y44.5866 I0.05 J0.0866
G2 X4.1 Y44.5 I0.05 J-0.0866
G2 X4.0002 Y44.4 I-0.1 J0.0
G1 F300.0 Z-0.2
G2 F200.0 X3.95 Y44.4134 I-0.0002 J0.1
G2 Y44.5866 I0.05 J0.0866
G2 X4.1 Y44.5 I0.05 J-0.0866
G2 X4.0002 Y44.4 I-0.1 J0.0
G1 F300.0 Z-0.25
G2 F200.0 X3.95 Y44.4134 I-0.0002 J0.1
G2 Y44.5866 I0.05 J0.0866
G2 X4.1 Y44.5 I0.05 J-0.0866
G2 X4.0002 Y44.4 I-0.1 J0.0
G1 F300.0 Z-0.3
G2 F200.0 X3.95 Y44.4134 I-0.0002 J0.1
G2 Y44.5866 I0.05 J0.0866
G2 X4.1 Y44.5 I0.05 J-0.0866
G2 X4.0002 Y44.4 I-0.1 J0.0
G1 F300.0 Z-0.35
G2 F200.0 X3.95 Y44.4134 I-0.0002 J0.1
G2 Y44.5866 I0.05 J0.0866
G2 X4.1 Y44.5 I0.05 J-0.0866
G2 X4.0002 Y44.4 I-0.1 J0.0
G1 F300.0 Z-0.4
G2 F200.0 X3.95 Y44.4134 I-0.0002 J0.1
G2 Y44.5866 I0.05 J0.0866
G2 X4.1 Y44.5 I0.05 J-0.0866
G2 X4.0002 Y44.4 I-0.1 J0.0
G1 F300.0 Z-0.45
G2 F200.0 X3.95 Y44.4134 I-0.0002 J0.1
G2 Y44.5866 I0.05 J0.0866
G2 X4.1 Y44.5 I0.05 J-0.0866
G2 X4.0002 Y44.4 I-0.1 J0.0
G1 F300.0 Z-0.5
G2 F200.0 X3.95 Y44.4134 I-0.0002 J0.1
G2 Y44.5866 I0.05 J0.0866
G2 X4.1 Y44.5 I0.05 J-0.0866
G2 X4.0002 Y44.4 I-0.1 J0.0
G1 F300.0 Z-0.55
G2 F200.0 X3.95 Y44.4134 I-0.0002 J0.1
G2 Y44.5866 I0.05 J0.0866
G2 X4.1 Y44.5 I0.05 J-0.0866
G2 X4.0002 Y44.4 I-0.1 J0.0
G1 F300.0 Z-0.6
G2 F200.0 X3.95 Y44.4134 I-0.0002 J0.1
G2 Y44.5866 I0.05 J0.0866
G2 X4.1 Y44.5 I0.05 J-0.0866
G2 X4.0002 Y44.4 I-0.1 J0.0
G1 F300.0 Z-0.65
G2 F200.0 X3.95 Y44.4134 I-0.0002 J0.1
G2 Y44.5866 I0.05 J0.0866
G2 X4.1 Y44.5 I0.05 J-0.0866
G2 X4.0002 Y44.4 I-0.1 J0.0
G1 F300.0 Z-0.7
G2 F200.0 X3.95 Y44.4134 I-0.0002 J0.1
G2 Y44.5866 I0.05 J0.0866
G2 X4.1 Y44.5 I0.05 J-0.0866
G2 X4.0002 Y44.4 I-0.1 J0.0
G1 F300.0 Z-0.75
G2 F200.0 X3.95 Y44.4134 I-0.0002 J0.1
G2 Y44.5866 I0.05 J0.0866
G2 X4.1 Y44.5 I0.05 J-0.0866
G2 X4.0002 Y44.4 I-0.1 J0.0
G1 F300.0 Z-0.8
G2 F200.0 X3.95 Y44.4134 I-0.0002 J0.1
G2 Y44.5866 I0.05 J0.0866
G2 X4.1 Y44.5 I0.05 J-0.0866
G2 X4.0002 Y44.4 I-0.1 J0.0
G1 F300.0 Z-0.85
G2 F200.0 X3.95 Y44.4134 I-0.0002 J0.1
G2 Y44.5866 I0.05 J0.0866
G2 X4.1 Y44.5 I0.05 J-0.0866
G2 X4.0002 Y44.4 I-0.1 J0.0
G1 F300.0 Z-0.9
G2 F200.0 X3.95 Y44.4134 I-0.0002 J0.1
G2 Y44.5866 I0.05 J0.0866
G2 X4.1 Y44.5 I0.05 J-0.0866
G2 X4.0002 Y44.4 I-0.1 J0.0
G1 F300.0 Z-0.95
G2 F200.0 X3.95 Y44.4134 I-0.0002 J0.1
G2 Y44.5866 I0.05 J0.0866
G2 X4.1 Y44.5 I0.05 J-0.0866
G2 X4.0002 Y44.4 I-0.1 J0.0
G1 F300.0 Z-1.0
G2 F200.0 X3.95 Y44.4134 I-0.0002 J0.1
G2 Y44.5866 I0.05 J0.0866
G2 X4.1 Y44.5 I0.05 J-0.0866
G2 X4.0002 Y44.4 I-0.1 J0.0
G1 F300.0 Z-1.05
G2 F200.0 X3.95 Y44.4134 I-0.0002 J0.1
G2 Y44.5866 I0.05 J0.0866
G2 X4.1 Y44.5 I0.05 J-0.0866
G2 X4.0002 Y44.4 I-0.1 J0.0
G1 F300.0 Z-1.1
G2 F200.0 X3.95 Y44.4134 I-0.0002 J0.1
G2 Y44.5866 I0.05 J0.0866
G2 X4.1 Y44.5 I0.05 J-0.0866
G2 X4.0002 Y44.4 I-0.1 J0.0
G1 F300.0 Z-1.15
G2 F200.0 X3.95 Y44.4134 I-0.0002 J0.1
G2 Y44.5866 I0.05 J0.0866
G2 X4.1 Y44.5 I0.05 J-0.0866
G2 X4.0002 Y44.4 I-0.1 J0.0
G1 F300.0 Z-1.2
G2 F200.0 X3.95 Y44.4134 I-0.0002 J0.1
G2 Y44.5866 I0.05 J0.0866
G2 X4.1 Y44.5 I0.05 J-0.0866
G2 X4.0002 Y44.4 I-0.1 J0.0
G1 F300.0 Z-1.25
G2 F200.0 X3.95 Y44.4134 I-0.0002 J0.1
G2 Y44.5866 I0.05 J0.0866
G2 X4.1 Y44.5 I0.05 J-0.0866
G2 X4.0002 Y44.4 I-0.1 J0.0
G1 F300.0 Z-1.3
G2 F200.0 X3.95 Y44.4134 I-0.0002 J0.1
G2 Y44.5866 I0.05 J0.0866
G2 X4.1 Y44.5 I0.05 J-0.0866
G2 X4.0002 Y44.4 I-0.1 J0.0
G1 F300.0 Z-1.35
G2 F200.0 X3.95 Y44.4134 I-0.0002 J0.1
G2 Y44.5866 I0.05 J0.0866
G2 X4.1 Y44.5 I0.05 J-0.0866
G2 X4.0002 Y44.4 I-0.1 J0.0
G1 F300.0 Z-1.4
G2 F200.0 X3.95 Y44.4134 I-0.0002 J0.1
G2 Y44.5866 I0.05 J0.0866
G2 X4.1 Y44.5 I0.05 J-0.0866
G2 X4.0002 Y44.4 I-0.1 J0.0
G1 F300.0 Z-1.45
G2 F200.0 X3.95 Y44.4134 I-0.0002 J0.1
G2 Y44.5866 I0.05 J0.0866
G2 X4.1 Y44.5 I0.05 J-0.0866
G2 X4.0002 Y44.4 I-0.1 J0.0
G1 F300.0 Z-1.5
G2 F200.0 X3.95 Y44.4134 I-0.0002 J0.1
G2 Y44.5866 I0.05 J0.0866
G2 X4.1 Y44.5 I0.05 J-0.0866
G2 X4.0002 Y44.4 I-0.1 J0.0
G1 F300.0 Z-1.55
G2 F200.0 X3.95 Y44.4134 I-0.0002 J0.1
G2 Y44.5866 I0.05 J0.0866
G2 X4.1 Y44.5 I0.05 J-0.0866
G2 X4.0002 Y44.4 I-0.1 J0.0
G1 F300.0 Z-1.6
G2 F200.0 X3.95 Y44.4134 I-0.0002 J0.1
G2 Y44.5866 I0.05 J0.0866
G2 X4.1 Y44.5 I0.05 J-0.0866
G2 X4.0002 Y44.4 I-0.1 J0.0
G1 F300.0 Z-1.65
G2 F200.0 X3.95 Y44.4134 I-0.0002 J0.1
G2 Y44.5866 I0.05 J0.0866
G2 X4.1 Y44.5 I0.05 J-0.0866
G2 X4.0002 Y44.4 I-0.1 J0.0
G1 F300.0 Z-1.7
G2 F200.0 X3.95 Y44.4134 I-0.0002 J0.1
G2 Y44.5866 I0.05 J0.0866
G2 X4.1 Y44.5 I0.05 J-0.0866
G2 X4.0002 Y44.4 I-0.1 J0.0
G1 F300.0 Z-1.75
G2 F200.0 X3.95 Y44.4134 I-0.0002 J0.1
G2 Y44.5866 I0.05 J0.0866
G2 X4.1 Y44.5 I0.05 J-0.0866
G2 X4.0002 Y44.4 I-0.1 J0.0
G1 F300.0 Z-1.8
G2 F200.0 X3.95 Y44.4134 I-0.0002 J0.1
G2 Y44.5866 I0.05 J0.0866
G2 X4.1 Y44.5 I0.05 J-0.0866
G2 X4.0002 Y44.4 I-0.1 J0.0
G1 F300.0 Z-1.85
G2 F200.0 X3.95 Y44.4134 I-0.0002 J0.1
G2 Y44.5866 I0.05 J0.0866
G2 X4.1 Y44.5 I0.05 J-0.0866
G2 X4.0002 Y44.4 I-0.1 J0.0
( Contour1 )
S1000
G0 Z3.0
G0 X-1.5 Y4.0
G0 Z1.0
G1 F300.0 Z-0.05
G3 F200.0 X9.5 I5.5 J0.0
G1 Y44.5
G3 X-1.5 I-5.5 J0.0
G1 Y4.0
G1 F300.0 Z-0.1
G3 F200.0 X9.5 I5.5 J0.0
G1 Y44.5
G3 X-1.5 I-5.5 J0.0
G1 Y4.0
G1 F300.0 Z-0.15
G3 F200.0 X9.5 I5.5 J0.0
G1 Y44.5
G3 X-1.5 I-5.5 J0.0
G1 Y4.0
G1 F300.0 Z-0.2
G3 F200.0 X9.5 I5.5 J0.0
G1 Y44.5
G3 X-1.5 I-5.5 J0.0
G1 Y4.0
G1 F300.0 Z-0.25
G3 F200.0 X9.5 I5.5 J0.0
G1 Y44.5
G3 X-1.5 I-5.5 J0.0
G1 Y4.0
G1 F300.0 Z-0.3
G3 F200.0 X9.5 I5.5 J0.0
G1 Y44.5
G3 X-1.5 I-5.5 J0.0
G1 Y4.0
G1 F300.0 Z-0.35
G3 F200.0 X9.5 I5.5 J0.0
G1 Y44.5
G3 X-1.5 I-5.5 J0.0
G1 Y4.0
G1 F300.0 Z-0.4
G3 F200.0 X9.5 I5.5 J0.0
G1 Y44.5
G3 X-1.5 I-5.5 J0.0
G1 Y4.0
G1 F300.0 Z-0.45
G3 F200.0 X9.5 I5.5 J0.0
G1 Y44.5
G3 X-1.5 I-5.5 J0.0
G1 Y4.0
G1 F300.0 Z-0.5
G3 F200.0 X9.5 I5.5 J0.0
G1 Y44.5
G3 X-1.5 I-5.5 J0.0
G1 Y4.0
G1 F300.0 Z-0.55
G3 F200.0 X9.5 I5.5 J0.0
G1 Y44.5
G3 X-1.5 I-5.5 J0.0
G1 Y4.0
G1 F300.0 Z-0.6
G3 F200.0 X9.5 I5.5 J0.0
G1 Y44.5
G3 X-1.5 I-5.5 J0.0
G1 Y4.0
G1 F300.0 Z-0.65
G3 F200.0 X9.5 I5.5 J0.0
G1 Y44.5
G3 X-1.5 I-5.5 J0.0
G1 Y4.0
G1 F300.0 Z-0.7
G3 F200.0 X9.5 I5.5 J0.0
G1 Y44.5
G3 X-1.5 I-5.5 J0.0
G1 Y4.0
G1 F300.0 Z-0.75
G3 F200.0 X9.5 I5.5 J0.0
G1 Y44.5
G3 X-1.5 I-5.5 J0.0
G1 Y4.0
G1 F300.0 Z-0.8
G3 F200.0 X9.5 I5.5 J0.0
G1 Y44.5
G3 X-1.5 I-5.5 J0.0
G1 Y4.0
G1 F300.0 Z-0.85
G3 F200.0 X9.5 I5.5 J0.0
G1 Y44.5
G3 X-1.5 I-5.5 J0.0
G1 Y4.0
G1 F300.0 Z-0.9
G3 F200.0 X9.5 I5.5 J0.0
G1 Y44.5
G3 X-1.5 I-5.5 J0.0
G1 Y4.0
G1 F300.0 Z-0.95
G3 F200.0 X9.5 I5.5 J0.0
G1 Y44.5
G3 X-1.5 I-5.5 J0.0
G1 Y4.0
G1 F300.0 Z-1.0
G3 F200.0 X9.5 I5.5 J0.0
G1 Y44.5
G3 X-1.5 I-5.5 J0.0
G1 Y4.0
G1 F300.0 Z-1.05
G3 F200.0 X9.5 I5.5 J0.0
G1 Y44.5
G3 X-1.5 I-5.5 J0.0
G1 Y4.0
G1 F300.0 Z-1.1
G3 F200.0 X9.5 I5.5 J0.0
G1 Y44.5
G3 X-1.5 I-5.5 J0.0
G1 Y4.0
G1 F300.0 Z-1.15
G3 F200.0 X9.5 I5.5 J0.0
G1 Y44.5
G3 X-1.5 I-5.5 J0.0
G1 Y4.0
G1 F300.0 Z-1.2
G3 F200.0 X9.5 I5.5 J0.0
G1 Y44.5
G3 X-1.5 I-5.5 J0.0
G1 Y4.0
G1 F300.0 Z-1.25
G3 F200.0 X9.5 I5.5 J0.0
G1 Y44.5
G3 X-1.5 I-5.5 J0.0
G1 Y4.0
G1 F300.0 Z-1.3
G3 F200.0 X9.5 I5.5 J0.0
G1 Y44.5
G3 X-1.5 I-5.5 J0.0
G1 Y4.0
G1 F300.0 Z-1.35
G3 F200.0 X9.5 I5.5 J0.0
G1 Y44.5
G3 X-1.5 I-5.5 J0.0
G1 Y4.0
G1 F300.0 Z-1.4
G3 F200.0 X9.5 I5.5 J0.0
G1 Y44.5
G3 X-1.5 I-5.5 J0.0
G1 Y4.0
G1 F300.0 Z-1.45
G3 F200.0 X9.5 I5.5 J0.0
G1 Y44.5
G3 X-1.5 I-5.5 J0.0
G1 Y4.0
G1 F300.0 Z-1.5
G3 F200.0 X9.5 I5.5 J0.0
G1 Y44.5
G3 X-1.5 I-5.5 J0.0
G1 Y4.0
G1 F300.0 Z-1.55
G3 F200.0 X9.5 I5.5 J0.0
G1 Y44.5
G3 X-1.5 I-5.5 J0.0
G1 Y4.0
G1 F300.0 Z-1.6
G3 F200.0 X9.5 I5.5 J0.0
G1 Y44.5
G3 X-1.5 I-5.5 J0.0
G1 Y4.0
G1 F300.0 Z-1.65
G3 F200.0 X9.5 I5.5 J0.0
G1 Y44.5
G3 X-1.5 I-5.5 J0.0
G1 Y4.0
G1 F300.0 Z-1.7
G3 F200.0 X9.5 I5.5 J0.0
G1 Y44.5
G3 X-1.5 I-5.5 J0.0
G1 Y4.0
G1 F300.0 Z-1.75
G3 F200.0 X9.5 I5.5 J0.0
G1 Y44.5
G3 X-1.5 I-5.5 J0.0
G1 Y4.0
G1 F300.0 Z-1.8
G3 F200.0 X9.5 I5.5 J0.0
G1 Y44.5
G3 X-1.5 I-5.5 J0.0
G1 Y4.0
G1 F300.0 Z-1.85
G3 F200.0 X9.5 I5.5 J0.0
G1 Y44.5
G3 X-1.5 I-5.5 J0.0
G1 Y4.0
G0 Z3.0
M5
M30
