( Made using CamBam - http://www.cambam.co.uk )
( Case - Cote 4/1/2024 6:15:53 PM )
( Post processor: Mach3 )
( T0 : 3.0 )
G21 G90 G64 G40
G91.1
G0 Z3.0
( T0 : 3.0 )
T0 M6
( Poche1 )
G17
M3 S1000
G0 X96.1 Y179.0
G0 Z1.0
G1 F300.0 Z-0.9
G2 F800.0 X95.95 Y178.9134 I-0.1 J0.0
G2 Y179.0866 I0.05 J0.0866
G2 X96.1 Y179.0 I0.05 J-0.0866
G1 F300.0 Z-1.7
G2 F800.0 X95.95 Y178.9134 I-0.1 J0.0
G2 Y179.0866 I0.05 J0.0866
G2 X96.1 Y179.0 I0.05 J-0.0866
G0 Z3.0
G0 X4.1
G0 Z1.0
G1 F300.0 Z-0.9
G2 F800.0 X3.95 Y178.9134 I-0.1 J0.0
G2 Y179.0866 I0.05 J0.0866
G2 X4.1 Y179.0 I0.05 J-0.0866
G1 F300.0 Z-1.7
G2 F800.0 X3.95 Y178.9134 I-0.1 J0.0
G2 Y179.0866 I0.05 J0.0866
G2 X4.1 Y179.0 I0.05 J-0.0866
G0 Z3.0
G0 X4.0001 Y19.1
G0 Z1.0
G1 F300.0 Z-0.9
G2 F800.0 X4.1 Y19.0 I-0.0001 J-0.1
G2 X3.95 Y18.9134 I-0.1 J0.0
G2 Y19.0866 I0.05 J0.0866
G2 X4.0001 Y19.1 I0.05 J-0.0866
G1 F300.0 Z-1.7
G2 F800.0 X4.1 Y19.0 I-0.0001 J-0.1
G2 X3.95 Y18.9134 I-0.1 J0.0
G2 Y19.0866 I0.05 J0.0866
G2 X4.0001 Y19.1 I0.05 J-0.0866
G0 Z3.0
G0 X95.9 Y19.0001
G0 Z1.0
G1 F300.0 Z-0.9
G2 F800.0 X95.95 Y19.0866 I0.1 J-0.0001
G2 X96.1 Y19.0 I0.05 J-0.0866
G2 X95.95 Y18.9134 I-0.1 J0.0
G2 X95.9 Y19.0001 I0.05 J0.0866
G1 F300.0 Z-1.7
G2 F800.0 X95.95 Y19.0866 I0.1 J-0.0001
G2 X96.1 Y19.0 I0.05 J-0.0866
G2 X95.95 Y18.9134 I-0.1 J0.0
G2 X95.9 Y19.0001 I0.05 J0.0866
( Contour1 )
S1000
G0 Z3.0
G0 X88.5 Y100.0
G0 Z1.0
G1 F300.0 Z-0.5
G2 F800.0 X30.75 Y66.658 I-38.5 J0.0
G2 Y133.342 I19.25 J33.342
G2 X88.5 Y100.0 I19.25 J-33.342
G1 F300.0 Z-1.0
G2 F800.0 X30.75 Y66.658 I-38.5 J0.0
G2 Y133.342 I19.25 J33.342
G2 X88.5 Y100.0 I19.25 J-33.342
G1 F300.0 Z-1.5
G2 F800.0 X30.75 Y66.658 I-38.5 J0.0
G2 Y133.342 I19.25 J33.342
G2 X88.5 Y100.0 I19.25 J-33.342
G1 F300.0 Z-1.7
G2 F800.0 X30.75 Y66.658 I-38.5 J0.0
G2 Y133.342 I19.25 J33.342
G2 X88.5 Y100.0 I19.25 J-33.342
( Contour2 )
S1000
G0 Z3.0
G0 X1.0 Y199.5
G0 Z1.0
G1 F300.0 Z-0.5
G3 F800.0 X-1.5 Y197.0 I0.0 J-2.5
G1 Y1.0
G3 X1.0 Y-1.5 I2.5 J0.0
G1 X99.0
G3 X101.5 Y1.0 I0.0 J2.5
G1 Y197.0
G3 X99.0 Y199.5 I-2.5 J0.0
G1 X1.0
G1 F300.0 Z-1.0
G3 F800.0 X-1.5 Y197.0 I0.0 J-2.5
G1 Y1.0
G3 X1.0 Y-1.5 I2.5 J0.0
G1 X99.0
G3 X101.5 Y1.0 I0.0 J2.5
G1 Y197.0
G3 X99.0 Y199.5 I-2.5 J0.0
G1 X1.0
G1 F300.0 Z-1.5
G3 F800.0 X-1.5 Y197.0 I0.0 J-2.5
G1 Y1.0
G3 X1.0 Y-1.5 I2.5 J0.0
G1 X99.0
G3 X101.5 Y1.0 I0.0 J2.5
G1 Y197.0
G3 X99.0 Y199.5 I-2.5 J0.0
G1 X1.0
G1 F300.0 Z-1.7
G3 F800.0 X-1.5 Y197.0 I0.0 J-2.5
G1 Y1.0
G3 X1.0 Y-1.5 I2.5 J0.0
G1 X99.0
G3 X101.5 Y1.0 I0.0 J2.5
G1 Y197.0
G3 X99.0 Y199.5 I-2.5 J0.0
G1 X1.0
G0 Z3.0
M5
M30
