( Made using CamBam - http://www.cambam.co.uk )
( Support PCB BM13xx-16 01a 5/18/2024 8:27:54 PM )
( Post processor: Mach3 )
( T0 : 3.0 )
G21 G90 G64 G40
G91.1
G0 Z3.0
( T0 : 3.0 )
T0 M6
( Poche2 )
G17
M3 S1000
G0 X85.35 Y68.3757
G0 Z1.0
G1 F300.0 Z0.0
G1 F1200.0 Y89.565 Z-0.3961
G1 Y93.335 Z-0.4665
G1 Y151.565 Z-1.5549
G1 Y155.335 Z-1.6254
G1 Y175.3757 Z-2.0
G1 Y155.335
G1 Y151.565
G1 Y93.335
G1 Y89.565
G1 Y68.3757
G0 Z3.0
G0 X84.15 Y175.3757
G0 Z1.0
G1 F300.0 Z0.0
G1 F1200.0 Y176.5757 Z-0.0107
G1 X86.55 Z-0.0322
G1 Y67.1757 Z-1.0107
G1 X84.15 Z-1.0322
G1 Y89.565 Z-1.2325
G1 Y93.335 Z-1.2662
G1 Y151.565 Z-1.787
G1 Y155.335 Z-1.8207
G1 Y175.3757 Z-2.0
G1 F300.0 X82.95
G1 F1200.0 Y177.7757
G1 X87.75
G1 Y65.9757
G1 X82.95
G1 Y89.565
G1 Y93.335
G1 Y151.565
G1 Y155.335
G1 Y175.3757
G1 F300.0 X81.75
G1 F1200.0 Y177.8757
G2 X82.85 Y178.9757 I1.1 J0.0
G1 X87.85
G2 X88.95 Y177.8757 I0.0 J-1.1
G1 Y65.8757
G2 X87.85 Y64.7757 I-1.1 J0.0
G1 X82.85
G2 X81.75 Y65.8757 I0.0 J1.1
G1 Y89.565
G1 Y93.335
G1 Y151.565
G1 Y155.335
G1 Y175.3757
G1 F300.0 X80.55
G1 F1200.0 Y177.8757
G2 X82.85 Y180.1757 I2.3 J0.0
G1 X87.85
G2 X90.15 Y177.8757 I0.0 J-2.3
G1 Y65.8757
G2 X87.85 Y63.5757 I-2.3 J0.0
G1 X82.85
G2 X80.55 Y65.8757 I0.0 J2.3
G1 Y89.565
G1 Y93.335
G1 Y151.565
G1 Y155.335
G1 Y175.3757
G1 F300.0 X79.35
G1 F1200.0 Y177.8757
G2 X82.85 Y181.3757 I3.5 J0.0
G1 X87.85
G2 X91.35 Y177.8757 I0.0 J-3.5
G1 Y65.8757
G2 X87.85 Y62.3757 I-3.5 J0.0
G1 X82.85
G2 X79.35 Y65.8757 I0.0 J3.5
G1 Y89.565
G1 Y93.335
G1 Y151.565
G1 Y155.335
G1 Y175.3757
G0 Z3.0
G0 X85.35 Y68.3757
G0 Z-1.0
G1 F300.0 Z-2.0
G1 F1200.0 Y89.565 Z-2.3961
G1 Y93.335 Z-2.4665
G1 Y151.565 Z-3.5549
G1 Y155.335 Z-3.6254
G1 Y175.3757 Z-4.0
G1 Y155.335
G1 Y151.565
G1 Y93.335
G1 Y89.565
G1 Y68.3757
G0 Z3.0
G0 X84.15 Y175.3757
G0 Z-1.0
G1 F300.0 Z-2.0
G1 F1200.0 Y176.5757 Z-2.0107
G1 X86.55 Z-2.0322
G1 Y67.1757 Z-3.0107
G1 X84.15 Z-3.0322
G1 Y89.565 Z-3.2325
G1 Y93.335 Z-3.2662
G1 Y151.565 Z-3.787
G1 Y155.335 Z-3.8207
G1 Y175.3757 Z-4.0
G1 F300.0 X82.95
G1 F1200.0 Y177.7757
G1 X87.75
G1 Y65.9757
G1 X82.95
G1 Y89.565
G1 Y93.335
G1 Y151.565
G1 Y155.335
G1 Y175.3757
G1 F300.0 X81.75
G1 F1200.0 Y177.8757
G2 X82.85 Y178.9757 I1.1 J0.0
G1 X87.85
G2 X88.95 Y177.8757 I0.0 J-1.1
G1 Y65.8757
G2 X87.85 Y64.7757 I-1.1 J0.0
G1 X82.85
G2 X81.75 Y65.8757 I0.0 J1.1
G1 Y89.565
G1 Y93.335
G1 Y151.565
G1 Y155.335
G1 Y175.3757
G1 F300.0 X80.55
G1 F1200.0 Y177.8757
G2 X82.85 Y180.1757 I2.3 J0.0
G1 X87.85
G2 X90.15 Y177.8757 I0.0 J-2.3
G1 Y65.8757
G2 X87.85 Y63.5757 I-2.3 J0.0
G1 X82.85
G2 X80.55 Y65.8757 I0.0 J2.3
G1 Y89.565
G1 Y93.335
G1 Y151.565
G1 Y155.335
G1 Y175.3757
G1 F300.0 X79.35
G1 F1200.0 Y177.8757
G2 X82.85 Y181.3757 I3.5 J0.0
G1 X87.85
G2 X91.35 Y177.8757 I0.0 J-3.5
G1 Y65.8757
G2 X87.85 Y62.3757 I-3.5 J0.0
G1 X82.85
G2 X79.35 Y65.8757 I0.0 J3.5
G1 Y89.565
G1 Y93.335
G1 Y151.565
G1 Y155.335
G1 Y175.3757
G0 Z3.0
G0 X85.35 Y68.3757
G0 Z-3.0
G1 F300.0 Z-4.0
G1 F1200.0 Y89.565 Z-4.1782
G1 Y93.335 Z-4.2099
G1 Y151.565 Z-4.6997
G1 Y155.335 Z-4.7314
G1 Y175.3757 Z-4.9
G1 Y155.335
G1 Y151.565
G1 Y93.335
G1 Y89.565
G1 Y68.3757
G0 Z3.0
G0 X84.15 Y175.3757
G0 Z-3.0
G1 F300.0 Z-4.0
G1 F1200.0 Y176.5757 Z-4.0048
G1 X86.55 Z-4.0145
G1 Y67.1757 Z-4.4548
G1 X84.15 Z-4.4645
G1 Y89.565 Z-4.5546
G1 Y93.335 Z-4.5698
G1 Y151.565 Z-4.8042
G1 Y155.335 Z-4.8193
G1 Y175.3757 Z-4.9
G1 Y176.5757
G1 X86.55
G1 Y67.1757
G1 X84.15
G1 Y89.565
G1 Y93.335
G1 Y151.565
G1 Y155.335
G1 Y175.3757
G1 F300.0 X82.95
G1 F1200.0 Y177.7757
G1 X87.75
G1 Y65.9757
G1 X82.95
G1 Y89.565
G1 Y93.335
G1 Y151.565
G1 Y155.335
G1 Y175.3757
G1 F300.0 X81.75
G1 F1200.0 Y177.8757
G2 X82.85 Y178.9757 I1.1 J0.0
G1 X87.85
G2 X88.95 Y177.8757 I0.0 J-1.1
G1 Y65.8757
G2 X87.85 Y64.7757 I-1.1 J0.0
G1 X82.85
G2 X81.75 Y65.8757 I0.0 J1.1
G1 Y89.565
G1 Y93.335
G1 Y151.565
G1 Y155.335
G1 Y175.3757
G1 F300.0 X80.55
G1 F1200.0 Y177.8757
G2 X82.85 Y180.1757 I2.3 J0.0
G1 X87.85
G2 X90.15 Y177.8757 I0.0 J-2.3
G1 Y65.8757
G2 X87.85 Y63.5757 I-2.3 J0.0
G1 X82.85
G2 X80.55 Y65.8757 I0.0 J2.3
G1 Y89.565
G1 Y93.335
G1 Y151.565
G1 Y155.335
G1 Y175.3757
G1 F300.0 X79.35
G1 F1200.0 Y177.8757
G2 X82.85 Y181.3757 I3.5 J0.0
G1 X87.85
G2 X91.35 Y177.8757 I0.0 J-3.5
G1 Y65.8757
G2 X87.85 Y62.3757 I-3.5 J0.0
G1 X82.85
G2 X79.35 Y65.8757 I0.0 J3.5
G1 Y89.565
G1 Y93.335
G1 Y151.565
G1 Y155.335
G1 Y175.3757
G0 Z3.0
G0 X62.75
G0 Z1.0
G1 F300.0 Z0.0
G1 F1200.0 Y155.4363 Z-0.2002
G1 Y151.4637 Z-0.2401
G1 Y93.4363 Z-0.8227
G1 Y89.4637 Z-0.8626
G1 Y80.9757 Z-0.9478
G1 X61.95 Z-0.9558
G1 Y179.7757 Z-1.9478
G1 X62.75 Z-1.9558
G1 Y175.3757 Z-2.0
G1 F300.0 X63.35
G1 F1200.0 Y155.4363
G1 Y151.4637
G1 Y93.4363
G1 Y89.4637
G1 Y80.3757
G1 X61.35
G1 Y180.3757
G1 X63.35
G1 Y175.3757
G1 F300.0 X64.55
G1 F1200.0 Y155.4363
G1 Y151.4637
G1 Y93.4363
G1 Y89.4637
G1 Y79.1757
G1 X60.15
G1 Y181.5757
G1 X64.55
G1 Y175.3757
G1 F300.0 X65.75
G1 F1200.0 Y155.4363
G1 Y151.4637
G1 Y93.4363
G1 Y89.4637
G1 Y77.9757
G1 X58.95
G1 Y182.7757
G1 X65.75
G1 Y175.3757
G1 F300.0 X66.95
G1 F1200.0 Y155.4363
G1 Y151.4637
G1 Y93.4363
G1 Y89.4637
G1 Y77.8757
G2 X65.85 Y76.7757 I-1.1 J0.0
G1 X58.85
G2 X57.75 Y77.8757 I0.0 J1.1
G1 Y182.8757
G2 X58.85 Y183.9757 I1.1 J0.0
G1 X65.85
G2 X66.95 Y182.8757 I0.0 J-1.1
G1 Y175.3757
G1 F300.0 X68.15
G1 F1200.0 Y155.4363
G1 Y151.4637
G1 Y93.4363
G1 Y89.4637
G1 Y77.8757
G2 X65.85 Y75.5757 I-2.3 J0.0
G1 X58.85
G2 X56.55 Y77.8757 I0.0 J2.3
G1 Y182.8757
G2 X58.85 Y185.1757 I2.3 J0.0
G1 X65.85
G2 X68.15 Y182.8757 I0.0 J-2.3
G1 Y175.3757
G1 F300.0 X69.35
G1 F1200.0 Y155.4363
G1 Y151.4637
G1 Y93.4363
G1 Y89.4637
G1 Y77.8757
G2 X65.85 Y74.3757 I-3.5 J0.0
G1 X58.85
G2 X55.35 Y77.8757 I0.0 J3.5
G1 Y182.8757
G2 X58.85 Y186.3757 I3.5 J0.0
G1 X65.85
G2 X69.35 Y182.8757 I0.0 J-3.5
G1 Y175.3757
G0 Z3.0
G0 X62.75
G0 Z-1.0
G1 F300.0 Z-2.0
G1 F1200.0 Y155.4363 Z-2.2002
G1 Y151.4637 Z-2.2401
G1 Y93.4363 Z-2.8227
G1 Y89.4637 Z-2.8626
G1 Y80.9757 Z-2.9478
G1 X61.95 Z-2.9558
G1 Y179.7757 Z-3.9478
G1 X62.75 Z-3.9558
G1 Y175.3757 Z-4.0
G1 F300.0 X63.35
G1 F1200.0 Y155.4363
G1 Y151.4637
G1 Y93.4363
G1 Y89.4637
G1 Y80.3757
G1 X61.35
G1 Y180.3757
G1 X63.35
G1 Y175.3757
G1 F300.0 X64.55
G1 F1200.0 Y155.4363
G1 Y151.4637
G1 Y93.4363
G1 Y89.4637
G1 Y79.1757
G1 X60.15
G1 Y181.5757
G1 X64.55
G1 Y175.3757
G1 F300.0 X65.75
G1 F1200.0 Y155.4363
G1 Y151.4637
G1 Y93.4363
G1 Y89.4637
G1 Y77.9757
G1 X58.95
G1 Y182.7757
G1 X65.75
G1 Y175.3757
G1 F300.0 X66.95
G1 F1200.0 Y155.4363
G1 Y151.4637
G1 Y93.4363
G1 Y89.4637
G1 Y77.8757
G2 X65.85 Y76.7757 I-1.1 J0.0
G1 X58.85
G2 X57.75 Y77.8757 I0.0 J1.1
G1 Y182.8757
G2 X58.85 Y183.9757 I1.1 J0.0
G1 X65.85
G2 X66.95 Y182.8757 I0.0 J-1.1
G1 Y175.3757
G1 F300.0 X68.15
G1 F1200.0 Y155.4363
G1 Y151.4637
G1 Y93.4363
G1 Y89.4637
G1 Y77.8757
G2 X65.85 Y75.5757 I-2.3 J0.0
G1 X58.85
G2 X56.55 Y77.8757 I0.0 J2.3
G1 Y182.8757
G2 X58.85 Y185.1757 I2.3 J0.0
G1 X65.85
G2 X68.15 Y182.8757 I0.0 J-2.3
G1 Y175.3757
G1 F300.0 X69.35
G1 F1200.0 Y155.4363
G1 Y151.4637
G1 Y93.4363
G1 Y89.4637
G1 Y77.8757
G2 X65.85 Y74.3757 I-3.5 J0.0
G1 X58.85
G2 X55.35 Y77.8757 I0.0 J3.5
G1 Y182.8757
G2 X58.85 Y186.3757 I3.5 J0.0
G1 X65.85
G2 X69.35 Y182.8757 I0.0 J-3.5
G1 Y175.3757
G0 Z3.0
G0 X62.75
G0 Z-3.0
G1 F300.0 Z-4.0
G1 F1200.0 Y155.4363 Z-4.0901
G1 Y151.4637 Z-4.108
G1 Y93.4363 Z-4.3702
G1 Y89.4637 Z-4.3882
G1 Y80.9757 Z-4.4265
G1 X61.95 Z-4.4301
G1 Y179.7757 Z-4.8765
G1 X62.75 Z-4.8801
G1 Y175.3757 Z-4.9
G1 Y155.4363
G1 Y151.4637
G1 Y93.4363
G1 Y89.4637
G1 Y80.9757
G1 X61.95
G1 Y179.7757
G1 X62.75
G1 Y175.3757
G1 F300.0 X63.35
G1 F1200.0 Y155.4363
G1 Y151.4637
G1 Y93.4363
G1 Y89.4637
G1 Y80.3757
G1 X61.35
G1 Y180.3757
G1 X63.35
G1 Y175.3757
G1 F300.0 X64.55
G1 F1200.0 Y155.4363
G1 Y151.4637
G1 Y93.4363
G1 Y89.4637
G1 Y79.1757
G1 X60.15
G1 Y181.5757
G1 X64.55
G1 Y175.3757
G1 F300.0 X65.75
G1 F1200.0 Y155.4363
G1 Y151.4637
G1 Y93.4363
G1 Y89.4637
G1 Y77.9757
G1 X58.95
G1 Y182.7757
G1 X65.75
G1 Y175.3757
G1 F300.0 X66.95
G1 F1200.0 Y155.4363
G1 Y151.4637
G1 Y93.4363
G1 Y89.4637
G1 Y77.8757
G2 X65.85 Y76.7757 I-1.1 J0.0
G1 X58.85
G2 X57.75 Y77.8757 I0.0 J1.1
G1 Y182.8757
G2 X58.85 Y183.9757 I1.1 J0.0
G1 X65.85
G2 X66.95 Y182.8757 I0.0 J-1.1
G1 Y175.3757
G1 F300.0 X68.15
G1 F1200.0 Y155.4363
G1 Y151.4637
G1 Y93.4363
G1 Y89.4637
G1 Y77.8757
G2 X65.85 Y75.5757 I-2.3 J0.0
G1 X58.85
G2 X56.55 Y77.8757 I0.0 J2.3
G1 Y182.8757
G2 X58.85 Y185.1757 I2.3 J0.0
G1 X65.85
G2 X68.15 Y182.8757 I0.0 J-2.3
G1 Y175.3757
G1 F300.0 X69.35
G1 F1200.0 Y155.4363
G1 Y151.4637
G1 Y93.4363
G1 Y89.4637
G1 Y77.8757
G2 X65.85 Y74.3757 I-3.5 J0.0
G1 X58.85
G2 X55.35 Y77.8757 I0.0 J3.5
G1 Y182.8757
G2 X58.85 Y186.3757 I3.5 J0.0
G1 X65.85
G2 X69.35 Y182.8757 I0.0 J-3.5
G1 Y175.3757
G0 Z3.0
G0 X104.35
G0 Z1.0
G1 F300.0 Z0.0
G1 F1200.0 Y156.1272 Z-0.3022
G1 Y150.7728 Z-0.3862
G1 Y94.1272 Z-1.2755
G1 Y88.7728 Z-1.3596
G1 Y68.3757 Z-1.6798
G1 Y88.7728 Z-2.0
G1 Y68.3757
G1 Y88.7728
G1 Y94.1272
G1 Y150.7728
G1 Y156.1272
G1 Y175.3757
G0 Z3.0
G0 X105.55 Y88.7728
G0 Z1.0
G1 F300.0 Z0.0
G1 F1200.0 Y67.1757 Z-0.1932
G1 X103.15 Z-0.2146
G1 Y176.5757 Z-1.1932
G1 X105.55 Z-1.2146
G1 Y156.1272 Z-1.3975
G1 Y150.7728 Z-1.4454
G1 Y94.1272 Z-1.9521
G1 Y88.7728 Z-2.0
G1 F300.0 X106.75
G1 F1200.0 Y65.9757
G1 X101.95
G1 Y177.7757
G1 X106.75
G1 Y156.1272
G1 Y150.7728
G1 Y94.1272
G1 Y88.7728
G1 F300.0 X107.95
G1 F1200.0 Y65.8757
G2 X106.85 Y64.7757 I-1.1 J0.0
G1 X101.85
G2 X100.75 Y65.8757 I0.0 J1.1
G1 Y177.8757
G2 X101.85 Y178.9757 I1.1 J0.0
G1 X106.85
G2 X107.95 Y177.8757 I0.0 J-1.1
G1 Y156.1272
G1 Y150.7728
G1 Y94.1272
G1 Y88.7728
G1 F300.0 X109.15
G1 F1200.0 Y65.8757
G2 X106.85 Y63.5757 I-2.3 J0.0
G1 X101.85
G2 X99.55 Y65.8757 I0.0 J2.3
G1 Y177.8757
G2 X101.85 Y180.1757 I2.3 J0.0
G1 X106.85
G2 X109.15 Y177.8757 I0.0 J-2.3
G1 Y156.1272
G1 Y150.7728
G1 Y94.1272
G1 Y88.7728
G1 F300.0 X110.35
G1 F1200.0 Y65.8757
G2 X106.85 Y62.3757 I-3.5 J0.0
G1 X101.85
G2 X98.35 Y65.8757 I0.0 J3.5
G1 Y177.8757
G2 X101.85 Y181.3757 I3.5 J0.0
G1 X106.85
G2 X110.35 Y177.8757 I0.0 J-3.5
G1 Y156.1272
G1 Y150.7728
G1 Y94.1272
G1 Y88.7728
G0 Z3.0
G0 X104.35 Y175.3757
G0 Z-1.0
G1 F300.0 Z-2.0
G1 F1200.0 Y156.1272 Z-2.3022
G1 Y150.7728 Z-2.3862
G1 Y94.1272 Z-3.2755
G1 Y88.7728 Z-3.3596
G1 Y68.3757 Z-3.6798
G1 Y88.7728 Z-4.0
G1 Y68.3757
G1 Y88.7728
G1 Y94.1272
G1 Y150.7728
G1 Y156.1272
G1 Y175.3757
G0 Z3.0
G0 X105.55 Y88.7728
G0 Z-1.0
G1 F300.0 Z-2.0
G1 F1200.0 Y67.1757 Z-2.1932
G1 X103.15 Z-2.2146
G1 Y176.5757 Z-3.1932
G1 X105.55 Z-3.2146
G1 Y156.1272 Z-3.3975
G1 Y150.7728 Z-3.4454
G1 Y94.1272 Z-3.9521
G1 Y88.7728 Z-4.0
G1 F300.0 X106.75
G1 F1200.0 Y65.9757
G1 X101.95
G1 Y177.7757
G1 X106.75
G1 Y156.1272
G1 Y150.7728
G1 Y94.1272
G1 Y88.7728
G1 F300.0 X107.95
G1 F1200.0 Y65.8757
G2 X106.85 Y64.7757 I-1.1 J0.0
G1 X101.85
G2 X100.75 Y65.8757 I0.0 J1.1
G1 Y177.8757
G2 X101.85 Y178.9757 I1.1 J0.0
G1 X106.85
G2 X107.95 Y177.8757 I0.0 J-1.1
G1 Y156.1272
G1 Y150.7728
G1 Y94.1272
G1 Y88.7728
G1 F300.0 X109.15
G1 F1200.0 Y65.8757
G2 X106.85 Y63.5757 I-2.3 J0.0
G1 X101.85
G2 X99.55 Y65.8757 I0.0 J2.3
G1 Y177.8757
G2 X101.85 Y180.1757 I2.3 J0.0
G1 X106.85
G2 X109.15 Y177.8757 I0.0 J-2.3
G1 Y156.1272
G1 Y150.7728
G1 Y94.1272
G1 Y88.7728
G1 F300.0 X110.35
G1 F1200.0 Y65.8757
G2 X106.85 Y62.3757 I-3.5 J0.0
G1 X101.85
G2 X98.35 Y65.8757 I0.0 J3.5
G1 Y177.8757
G2 X101.85 Y181.3757 I3.5 J0.0
G1 X106.85
G2 X110.35 Y177.8757 I0.0 J-3.5
G1 Y156.1272
G1 Y150.7728
G1 Y94.1272
G1 Y88.7728
G0 Z3.0
G0 X104.35 Y175.3757
G0 Z-3.0
G1 F300.0 Z-4.0
G1 F1200.0 Y156.1272 Z-4.136
G1 Y150.7728 Z-4.1738
G1 Y94.1272 Z-4.574
G1 Y88.7728 Z-4.6118
G1 Y68.3757 Z-4.7559
G1 Y88.7728 Z-4.9
G1 Y68.3757
G1 Y88.7728
G1 Y94.1272
G1 Y150.7728
G1 Y156.1272
G1 Y175.3757
G0 Z3.0
G0 X105.55 Y88.7728
G0 Z-3.0
G1 F300.0 Z-4.0
G1 F1200.0 Y67.1757 Z-4.0869
G1 X103.15 Z-4.0966
G1 Y176.5757 Z-4.5369
G1 X105.55 Z-4.5466
G1 Y156.1272 Z-4.6289
G1 Y150.7728 Z-4.6504
G1 Y94.1272 Z-4.8784
G1 Y88.7728 Z-4.9
G1 Y67.1757
G1 X103.15
G1 Y176.5757
G1 X105.55
G1 Y156.1272
G1 Y150.7728
G1 Y94.1272
G1 Y88.7728
G1 F300.0 X106.75
G1 F1200.0 Y65.9757
G1 X101.95
G1 Y177.7757
G1 X106.75
G1 Y156.1272
G1 Y150.7728
G1 Y94.1272
G1 Y88.7728
G1 F300.0 X107.95
G1 F1200.0 Y65.8757
G2 X106.85 Y64.7757 I-1.1 J0.0
G1 X101.85
G2 X100.75 Y65.8757 I0.0 J1.1
G1 Y177.8757
G2 X101.85 Y178.9757 I1.1 J0.0
G1 X106.85
G2 X107.95 Y177.8757 I0.0 J-1.1
G1 Y156.1272
G1 Y150.7728
G1 Y94.1272
G1 Y88.7728
G1 F300.0 X109.15
G1 F1200.0 Y65.8757
G2 X106.85 Y63.5757 I-2.3 J0.0
G1 X101.85
G2 X99.55 Y65.8757 I0.0 J2.3
G1 Y177.8757
G2 X101.85 Y180.1757 I2.3 J0.0
G1 X106.85
G2 X109.15 Y177.8757 I0.0 J-2.3
G1 Y156.1272
G1 Y150.7728
G1 Y94.1272
G1 Y88.7728
G1 F300.0 X110.35
G1 F1200.0 Y65.8757
G2 X106.85 Y62.3757 I-3.5 J0.0
G1 X101.85
G2 X98.35 Y65.8757 I0.0 J3.5
G1 Y177.8757
G2 X101.85 Y181.3757 I3.5 J0.0
G1 X106.85
G2 X110.35 Y177.8757 I0.0 J-3.5
G1 Y156.1272
G1 Y150.7728
G1 Y94.1272
G1 Y88.7728
G0 Z3.0
M5
M30
