( Made using CamBam - http://www.cambam.co.uk )
( Support PCB BM13xx-16 01a 5/18/2024 6:45:03 PM )
( Post processor: Mach3 )
( T0 : 3.0 )
G21 G90 G64 G40
G91.1
G0 Z3.0
( T0 : 3.0 )
T0 M6
( Poche1 )
G17
M3 S1000
G0 X115.15 Y154.0684
G0 Z1.0
G1 F300.0 Z0.0
G2 F1200.0 Y152.8316 Z-0.5508 I-0.328 J-0.6184
G1 Y154.0684 Z-1.0
G1 F300.0 X114.55
G1 F1200.0 Y154.7212
G2 Y152.1788 I0.272 J-1.2712
G1 Y154.0684
G1 F300.0 X113.35
G1 F1200.0 Y155.4707
G2 Y151.4293 I1.472 J-2.0207
G1 Y154.0684
G1 F300.0 X115.15
G2 F1200.0 Y152.8316 Z-1.5508 I-0.328 J-0.6184
G1 Y154.0684 Z-2.0
G1 F300.0 X114.55
G1 F1200.0 Y154.7212
G2 Y152.1788 I0.272 J-1.2712
G1 Y154.0684
G1 F300.0 X113.35
G1 F1200.0 Y155.4707
G2 Y151.4293 I1.472 J-2.0207
G1 Y154.0684
G1 F300.0 X115.15
G2 F1200.0 Y152.8316 Z-2.5508 I-0.328 J-0.6184
G1 Y154.0684 Z-3.0
G1 F300.0 X114.55
G1 F1200.0 Y154.7212
G2 Y152.1788 I0.272 J-1.2712
G1 Y154.0684
G1 F300.0 X113.35
G1 F1200.0 Y155.4707
G2 Y151.4293 I1.472 J-2.0207
G1 Y154.0684
G1 F300.0 X115.15
G2 F1200.0 Y152.8316 Z-3.5508 I-0.328 J-0.6184
G1 Y154.0684 Z-4.0
G1 F300.0 X114.55
G1 F1200.0 Y154.7212
G2 Y152.1788 I0.272 J-1.2712
G1 Y154.0684
G1 F300.0 X113.35
G1 F1200.0 Y155.4707
G2 Y151.4293 I1.472 J-2.0207
G1 Y154.0684
G1 F300.0 X115.15
G2 F1200.0 Y152.8316 Z-4.5508 I-0.328 J-0.6184
G1 Y154.0684 Z-5.0
G2 Y152.8316 I-0.328 J-0.6184
G1 Y154.0684
G1 F300.0 X114.55
G1 F1200.0 Y154.7212
G2 Y152.1788 I0.272 J-1.2712
G1 Y154.0684
G1 F300.0 X113.35
G1 F1200.0 Y155.4707
G2 Y151.4293 I1.472 J-2.0207
G1 Y154.0684
G0 Z3.0
G0 X74.55
G0 Z1.0
G1 F300.0 Z0.0
G1 F1200.0 Y152.7882 Z-0.3665
G2 X74.15 Y152.7715 Z-0.4828 I-0.228 J0.6618
G1 Y154.1285 Z-0.8713
G2 X74.55 Y154.1118 Z-0.9876 I0.172 J-0.6785
G1 Y154.0684 Z-1.0
G1 F300.0 X75.15
G1 F1200.0 Y152.4478
G2 X73.55 Y152.404 I-0.828 J1.0022
G1 Y154.496
G2 X75.15 Y154.4522 I0.772 J-1.046
G1 Y154.0684
G1 F300.0 X76.35
G1 F1200.0 Y151.9881
G2 X72.35 Y151.9134 I-2.028 J1.4619
G1 Y154.9866
G2 X76.35 Y154.9119 I1.972 J-1.5366
G1 Y154.0684
G1 F300.0 X74.55
G1 F1200.0 Y152.7882 Z-1.3665
G2 X74.15 Y152.7715 Z-1.4828 I-0.228 J0.6618
G1 Y154.1285 Z-1.8713
G2 X74.55 Y154.1118 Z-1.9876 I0.172 J-0.6785
G1 Y154.0684 Z-2.0
G1 F300.0 X75.15
G1 F1200.0 Y152.4478
G2 X73.55 Y152.404 I-0.828 J1.0022
G1 Y154.496
G2 X75.15 Y154.4522 I0.772 J-1.046
G1 Y154.0684
G1 F300.0 X76.35
G1 F1200.0 Y151.9881
G2 X72.35 Y151.9134 I-2.028 J1.4619
G1 Y154.9866
G2 X76.35 Y154.9119 I1.972 J-1.5366
G1 Y154.0684
G1 F300.0 X74.55
G1 F1200.0 Y152.7882 Z-2.3665
G2 X74.15 Y152.7715 Z-2.4828 I-0.228 J0.6618
G1 Y154.1285 Z-2.8713
G2 X74.55 Y154.1118 Z-2.9876 I0.172 J-0.6785
G1 Y154.0684 Z-3.0
G1 F300.0 X75.15
G1 F1200.0 Y152.4478
G2 X73.55 Y152.404 I-0.828 J1.0022
G1 Y154.496
G2 X75.15 Y154.4522 I0.772 J-1.046
G1 Y154.0684
G1 F300.0 X76.35
G1 F1200.0 Y151.9881
G2 X72.35 Y151.9134 I-2.028 J1.4619
G1 Y154.9866
G2 X76.35 Y154.9119 I1.972 J-1.5366
G1 Y154.0684
G1 F300.0 X74.55
G1 F1200.0 Y152.7882 Z-3.3665
G2 X74.15 Y152.7715 Z-3.4828 I-0.228 J0.6618
G1 Y154.1285 Z-3.8713
G2 X74.55 Y154.1118 Z-3.9876 I0.172 J-0.6785
G1 Y154.0684 Z-4.0
G1 F300.0 X75.15
G1 F1200.0 Y152.4478
G2 X73.55 Y152.404 I-0.828 J1.0022
G1 Y154.496
G2 X75.15 Y154.4522 I0.772 J-1.046
G1 Y154.0684
G1 F300.0 X76.35
G1 F1200.0 Y151.9881
G2 X72.35 Y151.9134 I-2.028 J1.4619
G1 Y154.9866
G2 X76.35 Y154.9119 I1.972 J-1.5366
G1 Y154.0684
G1 F300.0 X74.55
G1 F1200.0 Y152.7882 Z-4.3665
G2 X74.15 Y152.7715 Z-4.4828 I-0.228 J0.6618
G1 Y154.1285 Z-4.8713
G2 X74.55 Y154.1118 Z-4.9876 I0.172 J-0.6785
G1 Y154.0684 Z-5.0
G1 Y152.7882
G2 X74.15 Y152.7715 I-0.228 J0.6618
G1 Y154.1285
G2 X74.55 Y154.1118 I0.172 J-0.6785
G1 Y154.0684
G1 F300.0 X75.15
G1 F1200.0 Y152.4478
G2 X73.55 Y152.404 I-0.828 J1.0022
G1 Y154.496
G2 X75.15 Y154.4522 I0.772 J-1.046
G1 Y154.0684
G1 F300.0 X76.35
G1 F1200.0 Y151.9881
G2 X72.35 Y151.9134 I-2.028 J1.4619
G1 Y154.9866
G2 X76.35 Y154.9119 I1.972 J-1.5366
G1 Y154.0684
G0 Z3.0
G0 X74.3447 Y92.1496
G0 Z1.0
G1 F300.0 Z0.0
G2 F1200.0 X74.55 Y92.1118 Z-0.0526 I-0.0227 J-0.6996
G1 Y90.7882 Z-0.3845
G2 X74.3447 Y92.1496 Z-1.0 I-0.228 J0.6618
G1 F300.0 X74.3641 Y92.7493
G2 F1200.0 X75.15 Y92.4522 I-0.0421 J-1.2993
G1 Y90.4478
G2 X74.3641 Y92.7493 I-0.828 J1.0022
G1 F300.0 X74.4029 Y93.9487
G2 F1200.0 X76.35 Y92.9119 I-0.0809 J-2.4987
G1 Y89.9881
G2 X74.4029 Y93.9487 I-2.028 J1.4619
G1 F300.0 X74.3447 Y92.1496
G2 F1200.0 X74.55 Y92.1118 Z-1.0526 I-0.0227 J-0.6996
G1 Y90.7882 Z-1.3845
G2 X74.3447 Y92.1496 Z-2.0 I-0.228 J0.6618
G1 F300.0 X74.3641 Y92.7493
G2 F1200.0 X75.15 Y92.4522 I-0.0421 J-1.2993
G1 Y90.4478
G2 X74.3641 Y92.7493 I-0.828 J1.0022
G1 F300.0 X74.4029 Y93.9487
G2 F1200.0 X76.35 Y92.9119 I-0.0809 J-2.4987
G1 Y89.9881
G2 X74.4029 Y93.9487 I-2.028 J1.4619
G1 F300.0 X74.3447 Y92.1496
G2 F1200.0 X74.55 Y92.1118 Z-2.0526 I-0.0227 J-0.6996
G1 Y90.7882 Z-2.3845
G2 X74.3447 Y92.1496 Z-3.0 I-0.228 J0.6618
G1 F300.0 X74.3641 Y92.7493
G2 F1200.0 X75.15 Y92.4522 I-0.0421 J-1.2993
G1 Y90.4478
G2 X74.3641 Y92.7493 I-0.828 J1.0022
G1 F300.0 X74.4029 Y93.9487
G2 F1200.0 X76.35 Y92.9119 I-0.0809 J-2.4987
G1 Y89.9881
G2 X74.4029 Y93.9487 I-2.028 J1.4619
G1 F300.0 X74.3447 Y92.1496
G2 F1200.0 X74.55 Y92.1118 Z-3.0526 I-0.0227 J-0.6996
G1 Y90.7882 Z-3.3845
G2 X74.3447 Y92.1496 Z-4.0 I-0.228 J0.6618
G1 F300.0 X74.3641 Y92.7493
G2 F1200.0 X75.15 Y92.4522 I-0.0421 J-1.2993
G1 Y90.4478
G2 X74.3641 Y92.7493 I-0.828 J1.0022
G1 F300.0 X74.4029 Y93.9487
G2 F1200.0 X76.35 Y92.9119 I-0.0809 J-2.4987
G1 Y89.9881
G2 X74.4029 Y93.9487 I-2.028 J1.4619
G1 F300.0 X74.3447 Y92.1496
G2 F1200.0 X74.55 Y92.1118 Z-4.0526 I-0.0227 J-0.6996
G1 Y90.7882 Z-4.3845
G2 X74.3447 Y92.1496 Z-5.0 I-0.228 J0.6618
G2 X74.55 Y92.1118 I-0.0227 J-0.6996
G1 Y90.7882
G2 X74.3447 Y92.1496 I-0.228 J0.6618
G1 F300.0 X74.3641 Y92.7493
G2 F1200.0 X75.15 Y92.4522 I-0.0421 J-1.2993
G1 Y90.4478
G2 X74.3641 Y92.7493 I-0.828 J1.0022
G1 F300.0 X74.4029 Y93.9487
G2 F1200.0 X76.35 Y92.9119 I-0.0809 J-2.4987
G1 Y89.9881
G2 X74.4029 Y93.9487 I-2.028 J1.4619
G0 Z3.0
G0 X115.15 Y92.0684
G0 Z1.0
G1 F300.0 Z0.0
G2 F1200.0 Y90.8316 Z-0.5508 I-0.328 J-0.6184
G1 Y92.0684 Z-1.0
G1 F300.0 X115.4311 Y92.5985
G2 F1200.0 X114.55 Y90.1788 I-0.6091 J-1.1485
G1 Y92.7212
G2 X115.4311 Y92.5985 I0.272 J-1.2712
G1 F300.0 X115.9934 Y93.6586
G2 F1200.0 X113.35 Y89.4293 I-1.1714 J-2.2086
G1 Y93.4707
G2 X115.9934 Y93.6586 I1.472 J-2.0207
G1 F300.0 X115.15 Y92.0684
G2 F1200.0 Y90.8316 Z-1.5508 I-0.328 J-0.6184
G1 Y92.0684 Z-2.0
G1 F300.0 X115.4311 Y92.5985
G2 F1200.0 X114.55 Y90.1788 I-0.6091 J-1.1485
G1 Y92.7212
G2 X115.4311 Y92.5985 I0.272 J-1.2712
G1 F300.0 X115.9934 Y93.6586
G2 F1200.0 X113.35 Y89.4293 I-1.1714 J-2.2086
G1 Y93.4707
G2 X115.9934 Y93.6586 I1.472 J-2.0207
G1 F300.0 X115.15 Y92.0684
G2 F1200.0 Y90.8316 Z-2.5508 I-0.328 J-0.6184
G1 Y92.0684 Z-3.0
G1 F300.0 X115.4311 Y92.5985
G2 F1200.0 X114.55 Y90.1788 I-0.6091 J-1.1485
G1 Y92.7212
G2 X115.4311 Y92.5985 I0.272 J-1.2712
G1 F300.0 X115.9934 Y93.6586
G2 F1200.0 X113.35 Y89.4293 I-1.1714 J-2.2086
G1 Y93.4707
G2 X115.9934 Y93.6586 I1.472 J-2.0207
G1 F300.0 X115.15 Y92.0684
G2 F1200.0 Y90.8316 Z-3.5508 I-0.328 J-0.6184
G1 Y92.0684 Z-4.0
G1 F300.0 X115.4311 Y92.5985
G2 F1200.0 X114.55 Y90.1788 I-0.6091 J-1.1485
G1 Y92.7212
G2 X115.4311 Y92.5985 I0.272 J-1.2712
G1 F300.0 X115.9934 Y93.6586
G2 F1200.0 X113.35 Y89.4293 I-1.1714 J-2.2086
G1 Y93.4707
G2 X115.9934 Y93.6586 I1.472 J-2.0207
G1 F300.0 X115.15 Y92.0684
G2 F1200.0 Y90.8316 Z-4.5508 I-0.328 J-0.6184
G1 Y92.0684 Z-5.0
G2 Y90.8316 I-0.328 J-0.6184
G1 Y92.0684
G1 F300.0 X115.4311 Y92.5985
G2 F1200.0 X114.55 Y90.1788 I-0.6091 J-1.1485
G1 Y92.7212
G2 X115.4311 Y92.5985 I0.272 J-1.2712
G1 F300.0 X115.9934 Y93.6586
G2 F1200.0 X113.35 Y89.4293 I-1.1714 J-2.2086
G1 Y93.4707
G2 X115.9934 Y93.6586 I1.472 J-2.0207
G0 Z3.0
M5
M30
