( Made using CamBam - http://www.cambam.co.uk )
( Support PCB BM13xx-16 01a 5/18/2024 7:02:55 PM )
( Post processor: Mach3 )
( T0 : 5.0 )
G21 G90 G64 G40
G91.1
G0 Z3.0
( T0 : 5.0 )
T0 M6
( Poche1 )
G17
M3 S1000
G0 X114.35 Y154.8738
G0 Z1.0
G1 F300.0 Z0.0
G2 F1200.0 Y152.0262 Z-0.6658 I0.472 J-1.4238
G1 Y154.8738 Z-1.0
G2 Y152.0262 Z-1.6658 I0.472 J-1.4238
G1 Y154.8738 Z-2.0
G2 Y152.0262 Z-2.6658 I0.472 J-1.4238
G1 Y154.8738 Z-3.0
G2 Y152.0262 Z-3.6658 I0.472 J-1.4238
G1 Y154.8738 Z-4.0
G2 Y152.0262 Z-4.6658 I0.472 J-1.4238
G1 Y154.8738 Z-5.0
G2 Y152.0262 I0.472 J-1.4238
G1 Y154.8738
G0 Z3.0
G0 X74.35 Y153.9492
G0 Z1.0
G1 F300.0 Z0.0
G1 F1200.0 Y152.9508 Z-1.0
G1 Y153.9492
G1 F300.0 X74.406 Y151.9524
G2 F1200.0 X73.35 Y152.3075 I-0.084 J1.4976
G1 Y154.5925
G2 X75.35 Y154.5423 I0.972 J-1.1425
G1 Y152.3577
G2 X74.406 Y151.9524 I-1.028 J1.0923
G1 F300.0 X74.35 Y153.9492
G1 F1200.0 Y152.9508 Z-2.0
G1 Y153.9492
G1 F300.0 X74.406 Y151.9524
G2 F1200.0 X73.35 Y152.3075 I-0.084 J1.4976
G1 Y154.5925
G2 X75.35 Y154.5423 I0.972 J-1.1425
G1 Y152.3577
G2 X74.406 Y151.9524 I-1.028 J1.0923
G1 F300.0 X74.35 Y153.9492
G1 F1200.0 Y152.9508 Z-3.0
G1 Y153.9492
G1 F300.0 X74.406 Y151.9524
G2 F1200.0 X73.35 Y152.3075 I-0.084 J1.4976
G1 Y154.5925
G2 X75.35 Y154.5423 I0.972 J-1.1425
G1 Y152.3577
G2 X74.406 Y151.9524 I-1.028 J1.0923
G1 F300.0 X74.35 Y153.9492
G1 F1200.0 Y152.9508 Z-4.0
G1 Y153.9492
G1 F300.0 X74.406 Y151.9524
G2 F1200.0 X73.35 Y152.3075 I-0.084 J1.4976
G1 Y154.5925
G2 X75.35 Y154.5423 I0.972 J-1.1425
G1 Y152.3577
G2 X74.406 Y151.9524 I-1.028 J1.0923
G1 F300.0 X74.35 Y153.9492
G1 F1200.0 Y152.9508 Z-5.0
G1 Y153.9492
G1 F300.0 X74.406 Y151.9524
G2 F1200.0 X73.35 Y152.3075 I-0.084 J1.4976
G1 Y154.5925
G2 X75.35 Y154.5423 I0.972 J-1.1425
G1 Y152.3577
G2 X74.406 Y151.9524 I-1.028 J1.0923
G0 Z3.0
G0 X74.3227 Y91.95
G0 Z1.0
G1 F300.0 Z0.0
G2 F1200.0 X74.35 Y91.9492 Z-0.0104 I-0.0007 J-0.5
G1 Y90.9508 Z-0.3907
G2 X74.3227 Y91.95 Z-1.0 I-0.028 J0.4992
G1 F300.0 X74.3241 Y92.95
G2 F1200.0 X75.35 Y92.5423 I-0.0021 J-1.5
G1 Y90.3577
G2 X74.3241 Y92.95 I-1.028 J1.0923
G1 F300.0 X74.3227 Y91.95
G2 F1200.0 X74.35 Y91.9492 Z-1.0104 I-0.0007 J-0.5
G1 Y90.9508 Z-1.3907
G2 X74.3227 Y91.95 Z-2.0 I-0.028 J0.4992
G1 F300.0 X74.3241 Y92.95
G2 F1200.0 X75.35 Y92.5423 I-0.0021 J-1.5
G1 Y90.3577
G2 X74.3241 Y92.95 I-1.028 J1.0923
G1 F300.0 X74.3227 Y91.95
G2 F1200.0 X74.35 Y91.9492 Z-2.0104 I-0.0007 J-0.5
G1 Y90.9508 Z-2.3907
G2 X74.3227 Y91.95 Z-3.0 I-0.028 J0.4992
G1 F300.0 X74.3241 Y92.95
G2 F1200.0 X75.35 Y92.5423 I-0.0021 J-1.5
G1 Y90.3577
G2 X74.3241 Y92.95 I-1.028 J1.0923
G1 F300.0 X74.3227 Y91.95
G2 F1200.0 X74.35 Y91.9492 Z-3.0104 I-0.0007 J-0.5
G1 Y90.9508 Z-3.3907
G2 X74.3227 Y91.95 Z-4.0 I-0.028 J0.4992
G1 F300.0 X74.3241 Y92.95
G2 F1200.0 X75.35 Y92.5423 I-0.0021 J-1.5
G1 Y90.3577
G2 X74.3241 Y92.95 I-1.028 J1.0923
G1 F300.0 X74.3227 Y91.95
G2 F1200.0 X74.35 Y91.9492 Z-4.0104 I-0.0007 J-0.5
G1 Y90.9508 Z-4.3907
G2 X74.3227 Y91.95 Z-5.0 I-0.028 J0.4992
G2 X74.35 Y91.9492 I-0.0007 J-0.5
G1 Y90.9508
G2 X74.3227 Y91.95 I-0.028 J0.4992
G1 F300.0 X74.3241 Y92.95
G2 F1200.0 X75.35 Y92.5423 I-0.0021 J-1.5
G1 Y90.3577
G2 X74.3241 Y92.95 I-1.028 J1.0923
G0 Z3.0
G0 X114.35 Y92.8738
G0 Z1.0
G1 F300.0 Z0.0
G2 F1200.0 Y90.0262 Z-0.6658 I0.472 J-1.4238
G1 Y92.8738 Z-1.0
G2 Y90.0262 Z-1.6658 I0.472 J-1.4238
G1 Y92.8738 Z-2.0
G2 Y90.0262 Z-2.6658 I0.472 J-1.4238
G1 Y92.8738 Z-3.0
G2 Y90.0262 Z-3.6658 I0.472 J-1.4238
G1 Y92.8738 Z-4.0
G2 Y90.0262 Z-4.6658 I0.472 J-1.4238
G1 Y92.8738 Z-5.0
G2 Y90.0262 I0.472 J-1.4238
G1 Y92.8738
( Poche2 )
S1000
G0 Z3.0
G0 X85.35 Y68.3757
G0 Z1.0
G1 F300.0 Z0.0
G1 F1200.0 Y89.565 Z-0.198
G1 Y93.335 Z-0.2333
G1 Y151.565 Z-0.7775
G1 Y155.335 Z-0.8127
G1 Y175.3757 Z-1.0
G1 Y155.335
G1 Y151.565
G1 Y93.335
G1 Y89.565
G1 Y68.3757
G0 Z3.0
G0 X84.35 Y175.3757
G0 Z1.0
G1 F300.0 Z0.0
G1 F1200.0 Y176.3757 Z-0.0045
G1 X86.35 Z-0.0135
G1 Y67.3757 Z-0.5045
G1 X84.35 Z-0.5135
G1 Y89.565 Z-0.6135
G1 Y93.335 Z-0.6304
G1 Y151.565 Z-0.8927
G1 Y155.335 Z-0.9097
G1 Y175.3757 Z-1.0
G1 F300.0 X82.35
G1 F1200.0 Y177.8757
G2 X82.85 Y178.3757 I0.5 J0.0
G1 X87.85
G2 X88.35 Y177.8757 I0.0 J-0.5
G1 Y65.8757
G2 X87.85 Y65.3757 I-0.5 J0.0
G1 X82.85
G2 X82.35 Y65.8757 I0.0 J0.5
G1 Y89.565
G1 Y93.335
G1 Y151.565
G1 Y155.335
G1 Y175.3757
G1 F300.0 X80.35
G1 F1200.0 Y177.8757
G2 X82.85 Y180.3757 I2.5 J0.0
G1 X87.85
G2 X90.35 Y177.8757 I0.0 J-2.5
G1 Y65.8757
G2 X87.85 Y63.3757 I-2.5 J0.0
G1 X82.85
G2 X80.35 Y65.8757 I0.0 J2.5
G1 Y89.565
G1 Y93.335
G1 Y151.565
G1 Y155.335
G1 Y175.3757
G0 Z3.0
G0 X85.35 Y68.3757
G0 Z0.0
G1 F300.0 Z-1.0
G1 F1200.0 Y89.565 Z-1.198
G1 Y93.335 Z-1.2333
G1 Y151.565 Z-1.7775
G1 Y155.335 Z-1.8127
G1 Y175.3757 Z-2.0
G1 Y155.335
G1 Y151.565
G1 Y93.335
G1 Y89.565
G1 Y68.3757
G0 Z3.0
G0 X84.35 Y175.3757
G0 Z0.0
G1 F300.0 Z-1.0
G1 F1200.0 Y176.3757 Z-1.0045
G1 X86.35 Z-1.0135
G1 Y67.3757 Z-1.5045
G1 X84.35 Z-1.5135
G1 Y89.565 Z-1.6135
G1 Y93.335 Z-1.6304
G1 Y151.565 Z-1.8927
G1 Y155.335 Z-1.9097
G1 Y175.3757 Z-2.0
G1 F300.0 X82.35
G1 F1200.0 Y177.8757
G2 X82.85 Y178.3757 I0.5 J0.0
G1 X87.85
G2 X88.35 Y177.8757 I0.0 J-0.5
G1 Y65.8757
G2 X87.85 Y65.3757 I-0.5 J0.0
G1 X82.85
G2 X82.35 Y65.8757 I0.0 J0.5
G1 Y89.565
G1 Y93.335
G1 Y151.565
G1 Y155.335
G1 Y175.3757
G1 F300.0 X80.35
G1 F1200.0 Y177.8757
G2 X82.85 Y180.3757 I2.5 J0.0
G1 X87.85
G2 X90.35 Y177.8757 I0.0 J-2.5
G1 Y65.8757
G2 X87.85 Y63.3757 I-2.5 J0.0
G1 X82.85
G2 X80.35 Y65.8757 I0.0 J2.5
G1 Y89.565
G1 Y93.335
G1 Y151.565
G1 Y155.335
G1 Y175.3757
G0 Z3.0
G0 X85.35 Y68.3757
G0 Z-1.0
G1 F300.0 Z-2.0
G1 F1200.0 Y89.565 Z-2.198
G1 Y93.335 Z-2.2333
G1 Y151.565 Z-2.7775
G1 Y155.335 Z-2.8127
G1 Y175.3757 Z-3.0
G1 Y155.335
G1 Y151.565
G1 Y93.335
G1 Y89.565
G1 Y68.3757
G0 Z3.0
G0 X84.35 Y175.3757
G0 Z-1.0
G1 F300.0 Z-2.0
G1 F1200.0 Y176.3757 Z-2.0045
G1 X86.35 Z-2.0135
G1 Y67.3757 Z-2.5045
G1 X84.35 Z-2.5135
G1 Y89.565 Z-2.6135
G1 Y93.335 Z-2.6304
G1 Y151.565 Z-2.8927
G1 Y155.335 Z-2.9097
G1 Y175.3757 Z-3.0
G1 Y176.3757
G1 X86.35
G1 Y67.3757
G1 X84.35
G1 Y89.565
G1 Y93.335
G1 Y151.565
G1 Y155.335
G1 Y175.3757
G1 F300.0 X82.35
G1 F1200.0 Y177.8757
G2 X82.85 Y178.3757 I0.5 J0.0
G1 X87.85
G2 X88.35 Y177.8757 I0.0 J-0.5
G1 Y65.8757
G2 X87.85 Y65.3757 I-0.5 J0.0
G1 X82.85
G2 X82.35 Y65.8757 I0.0 J0.5
G1 Y89.565
G1 Y93.335
G1 Y151.565
G1 Y155.335
G1 Y175.3757
G1 F300.0 X80.35
G1 F1200.0 Y177.8757
G2 X82.85 Y180.3757 I2.5 J0.0
G1 X87.85
G2 X90.35 Y177.8757 I0.0 J-2.5
G1 Y65.8757
G2 X87.85 Y63.3757 I-2.5 J0.0
G1 X82.85
G2 X80.35 Y65.8757 I0.0 J2.5
G1 Y89.565
G1 Y93.335
G1 Y151.565
G1 Y155.335
G1 Y175.3757
G0 Z3.0
G0 X104.35
G0 Z1.0
G1 F300.0 Z0.0
G1 F1200.0 Y156.1272 Z-0.1511
G1 Y150.7728 Z-0.1931
G1 Y94.1272 Z-0.6378
G1 Y88.7728 Z-0.6798
G1 Y68.3757 Z-0.8399
G1 Y88.7728 Z-1.0
G1 Y68.3757
G1 Y88.7728
G1 Y94.1272
G1 Y150.7728
G1 Y156.1272
G1 Y175.3757
G0 Z3.0
G0 X105.35 Y88.7728
G0 Z1.0
G1 F300.0 Z0.0
G1 F1200.0 Y67.3757 Z-0.0964
G1 X103.35 Z-0.1054
G1 Y176.3757 Z-0.5964
G1 X105.35 Z-0.6054
G1 Y156.1272 Z-0.6966
G1 Y150.7728 Z-0.7207
G1 Y94.1272 Z-0.9759
G1 Y88.7728 Z-1.0
G1 F300.0 X107.35
G1 F1200.0 Y65.8757
G2 X106.85 Y65.3757 I-0.5 J0.0
G1 X101.85
G2 X101.35 Y65.8757 I0.0 J0.5
G1 Y177.8757
G2 X101.85 Y178.3757 I0.5 J0.0
G1 X106.85
G2 X107.35 Y177.8757 I0.0 J-0.5
G1 Y156.1272
G1 Y150.7728
G1 Y94.1272
G1 Y88.7728
G1 F300.0 X109.35
G1 F1200.0 Y65.8757
G2 X106.85 Y63.3757 I-2.5 J0.0
G1 X101.85
G2 X99.35 Y65.8757 I0.0 J2.5
G1 Y177.8757
G2 X101.85 Y180.3757 I2.5 J0.0
G1 X106.85
G2 X109.35 Y177.8757 I0.0 J-2.5
G1 Y156.1272
G1 Y150.7728
G1 Y94.1272
G1 Y88.7728
G0 Z3.0
G0 X104.35 Y175.3757
G0 Z0.0
G1 F300.0 Z-1.0
G1 F1200.0 Y156.1272 Z-1.1511
G1 Y150.7728 Z-1.1931
G1 Y94.1272 Z-1.6378
G1 Y88.7728 Z-1.6798
G1 Y68.3757 Z-1.8399
G1 Y88.7728 Z-2.0
G1 Y68.3757
G1 Y88.7728
G1 Y94.1272
G1 Y150.7728
G1 Y156.1272
G1 Y175.3757
G0 Z3.0
G0 X105.35 Y88.7728
G0 Z0.0
G1 F300.0 Z-1.0
G1 F1200.0 Y67.3757 Z-1.0964
G1 X103.35 Z-1.1054
G1 Y176.3757 Z-1.5964
G1 X105.35 Z-1.6054
G1 Y156.1272 Z-1.6966
G1 Y150.7728 Z-1.7207
G1 Y94.1272 Z-1.9759
G1 Y88.7728 Z-2.0
G1 F300.0 X107.35
G1 F1200.0 Y65.8757
G2 X106.85 Y65.3757 I-0.5 J0.0
G1 X101.85
G2 X101.35 Y65.8757 I0.0 J0.5
G1 Y177.8757
G2 X101.85 Y178.3757 I0.5 J0.0
G1 X106.85
G2 X107.35 Y177.8757 I0.0 J-0.5
G1 Y156.1272
G1 Y150.7728
G1 Y94.1272
G1 Y88.7728
G1 F300.0 X109.35
G1 F1200.0 Y65.8757
G2 X106.85 Y63.3757 I-2.5 J0.0
G1 X101.85
G2 X99.35 Y65.8757 I0.0 J2.5
G1 Y177.8757
G2 X101.85 Y180.3757 I2.5 J0.0
G1 X106.85
G2 X109.35 Y177.8757 I0.0 J-2.5
G1 Y156.1272
G1 Y150.7728
G1 Y94.1272
G1 Y88.7728
G0 Z3.0
G0 X104.35 Y175.3757
G0 Z-1.0
G1 F300.0 Z-2.0
G1 F1200.0 Y156.1272 Z-2.1511
G1 Y150.7728 Z-2.1931
G1 Y94.1272 Z-2.6378
G1 Y88.7728 Z-2.6798
G1 Y68.3757 Z-2.8399
G1 Y88.7728 Z-3.0
G1 Y68.3757
G1 Y88.7728
G1 Y94.1272
G1 Y150.7728
G1 Y156.1272
G1 Y175.3757
G0 Z3.0
G0 X105.35 Y88.7728
G0 Z-1.0
G1 F300.0 Z-2.0
G1 F1200.0 Y67.3757 Z-2.0964
G1 X103.35 Z-2.1054
G1 Y176.3757 Z-2.5964
G1 X105.35 Z-2.6054
G1 Y156.1272 Z-2.6966
G1 Y150.7728 Z-2.7207
G1 Y94.1272 Z-2.9759
G1 Y88.7728 Z-3.0
G1 Y67.3757
G1 X103.35
G1 Y176.3757
G1 X105.35
G1 Y156.1272
G1 Y150.7728
G1 Y94.1272
G1 Y88.7728
G1 F300.0 X107.35
G1 F1200.0 Y65.8757
G2 X106.85 Y65.3757 I-0.5 J0.0
G1 X101.85
G2 X101.35 Y65.8757 I0.0 J0.5
G1 Y177.8757
G2 X101.85 Y178.3757 I0.5 J0.0
G1 X106.85
G2 X107.35 Y177.8757 I0.0 J-0.5
G1 Y156.1272
G1 Y150.7728
G1 Y94.1272
G1 Y88.7728
G1 F300.0 X109.35
G1 F1200.0 Y65.8757
G2 X106.85 Y63.3757 I-2.5 J0.0
G1 X101.85
G2 X99.35 Y65.8757 I0.0 J2.5
G1 Y177.8757
G2 X101.85 Y180.3757 I2.5 J0.0
G1 X106.85
G2 X109.35 Y177.8757 I0.0 J-2.5
G1 Y156.1272
G1 Y150.7728
G1 Y94.1272
G1 Y88.7728
G0 Z3.0
G0 X62.35 Y179.3757
G0 Z1.0
G1 F300.0 Z0.0
G1 F1200.0 Y155.4363 Z-0.2443
G1 Y151.4637 Z-0.2848
G1 Y93.4363 Z-0.8769
G1 Y89.4637 Z-0.9175
G1 Y81.3757 Z-1.0
G1 Y89.4637
G1 Y93.4363
G1 Y151.4637
G1 Y155.4363
G1 Y179.3757
G0 Z3.0
G0 Y79.3757
G0 Z1.0
G1 F300.0 Z0.0
G1 F1200.0 X60.35 Z-0.0094
G1 Y181.3757 Z-0.4906
G1 X64.35 Z-0.5094
G1 Y155.4363 Z-0.6318
G1 Y151.4637 Z-0.6505
G1 Y93.4363 Z-0.9242
G1 Y89.4637 Z-0.943
G1 Y79.3757 Z-0.9906
G1 X62.35 Z-1.0
G1 F300.0 Y77.3757
G1 F1200.0 X58.85
G2 X58.35 Y77.8757 I0.0 J0.5
G1 Y182.8757
G2 X58.85 Y183.3757 I0.5 J0.0
G1 X65.85
G2 X66.35 Y182.8757 I0.0 J-0.5
G1 Y155.4363
G1 Y151.4637
G1 Y93.4363
G1 Y89.4637
G1 Y77.8757
G2 X65.85 Y77.3757 I-0.5 J0.0
G1 X62.35
G1 F300.0 Y75.3757
G1 F1200.0 X58.85
G2 X56.35 Y77.8757 I0.0 J2.5
G1 Y182.8757
G2 X58.85 Y185.3757 I2.5 J0.0
G1 X65.85
G2 X68.35 Y182.8757 I0.0 J-2.5
G1 Y155.4363
G1 Y151.4637
G1 Y93.4363
G1 Y89.4637
G1 Y77.8757
G2 X65.85 Y75.3757 I-2.5 J0.0
G1 X62.35
G0 Z3.0
G0 Y179.3757
G0 Z0.0
G1 F300.0 Z-1.0
G1 F1200.0 Y155.4363 Z-1.2443
G1 Y151.4637 Z-1.2848
G1 Y93.4363 Z-1.8769
G1 Y89.4637 Z-1.9175
G1 Y81.3757 Z-2.0
G1 Y89.4637
G1 Y93.4363
G1 Y151.4637
G1 Y155.4363
G1 Y179.3757
G0 Z3.0
G0 Y79.3757
G0 Z0.0
G1 F300.0 Z-1.0
G1 F1200.0 X60.35 Z-1.0094
G1 Y181.3757 Z-1.4906
G1 X64.35 Z-1.5094
G1 Y155.4363 Z-1.6318
G1 Y151.4637 Z-1.6505
G1 Y93.4363 Z-1.9242
G1 Y89.4637 Z-1.943
G1 Y79.3757 Z-1.9906
G1 X62.35 Z-2.0
G1 F300.0 Y77.3757
G1 F1200.0 X58.85
G2 X58.35 Y77.8757 I0.0 J0.5
G1 Y182.8757
G2 X58.85 Y183.3757 I0.5 J0.0
G1 X65.85
G2 X66.35 Y182.8757 I0.0 J-0.5
G1 Y155.4363
G1 Y151.4637
G1 Y93.4363
G1 Y89.4637
G1 Y77.8757
G2 X65.85 Y77.3757 I-0.5 J0.0
G1 X62.35
G1 F300.0 Y75.3757
G1 F1200.0 X58.85
G2 X56.35 Y77.8757 I0.0 J2.5
G1 Y182.8757
G2 X58.85 Y185.3757 I2.5 J0.0
G1 X65.85
G2 X68.35 Y182.8757 I0.0 J-2.5
G1 Y155.4363
G1 Y151.4637
G1 Y93.4363
G1 Y89.4637
G1 Y77.8757
G2 X65.85 Y75.3757 I-2.5 J0.0
G1 X62.35
G0 Z3.0
G0 Y179.3757
G0 Z-1.0
G1 F300.0 Z-2.0
G1 F1200.0 Y155.4363 Z-2.2443
G1 Y151.4637 Z-2.2848
G1 Y93.4363 Z-2.8769
G1 Y89.4637 Z-2.9175
G1 Y81.3757 Z-3.0
G1 Y89.4637
G1 Y93.4363
G1 Y151.4637
G1 Y155.4363
G1 Y179.3757
G0 Z3.0
G0 Y79.3757
G0 Z-1.0
G1 F300.0 Z-2.0
G1 F1200.0 X60.35 Z-2.0094
G1 Y181.3757 Z-2.4906
G1 X64.35 Z-2.5094
G1 Y155.4363 Z-2.6318
G1 Y151.4637 Z-2.6505
G1 Y93.4363 Z-2.9242
G1 Y89.4637 Z-2.943
G1 Y79.3757 Z-2.9906
G1 X62.35 Z-3.0
G1 X60.35
G1 Y181.3757
G1 X64.35
G1 Y155.4363
G1 Y151.4637
G1 Y93.4363
G1 Y89.4637
G1 Y79.3757
G1 X62.35
G1 F300.0 Y77.3757
G1 F1200.0 X58.85
G2 X58.35 Y77.8757 I0.0 J0.5
G1 Y182.8757
G2 X58.85 Y183.3757 I0.5 J0.0
G1 X65.85
G2 X66.35 Y182.8757 I0.0 J-0.5
G1 Y155.4363
G1 Y151.4637
G1 Y93.4363
G1 Y89.4637
G1 Y77.8757
G2 X65.85 Y77.3757 I-0.5 J0.0
G1 X62.35
G1 F300.0 Y75.3757
G1 F1200.0 X58.85
G2 X56.35 Y77.8757 I0.0 J2.5
G1 Y182.8757
G2 X58.85 Y185.3757 I2.5 J0.0
G1 X65.85
G2 X68.35 Y182.8757 I0.0 J-2.5
G1 Y155.4363
G1 Y151.4637
G1 Y93.4363
G1 Y89.4637
G1 Y77.8757
G2 X65.85 Y75.3757 I-2.5 J0.0
G1 X62.35
( Poche3 )
S1000
G0 Z3.0
G0 X74.5 Y99.4157
G0 Z1.0
G1 F300.0 Z0.0
G1 F1200.0 Y140.3757 Z-0.4898
G1 X75.35 Z-0.5
G1 Y99.4157 Z-0.9898
G1 X74.5 Z-1.0
G1 F300.0 X73.5
G1 F1200.0 Y141.3757
G1 X76.35
G1 Y98.4157
G1 X74.0
G3 X73.5 Y98.4131 I0.0 J-48.5
G1 Y99.4157
G1 F300.0 X71.5
G1 F1200.0 Y143.3757
G1 X78.35
G1 Y96.4157
G1 X74.0
G3 X71.5 Y96.3484 I0.0 J-46.5
G1 Y99.4157
G1 F300.0 X69.5
G1 F1200.0 Y145.3757
G1 X80.35
G1 Y94.4157
G1 X74.0
G3 X69.5 Y94.1876 I0.0 J-44.5
G1 Y99.4157
G1 F300.0 X67.5
G1 F1200.0 Y147.3757
G1 X82.35
G1 Y92.4157
G1 X74.0
G3 X67.5 Y91.9157 I0.0 J-42.5
G1 Y99.4157
G1 F300.0 X65.5
G1 F1200.0 Y149.3757
G1 X84.35
G1 Y90.4157
G1 X74.0
G3 X65.5 Y89.5137 I0.0 J-40.5
G1 Y99.4157
G1 F300.0 X63.5
G1 F1200.0 Y151.3757
G1 X86.35
G1 Y88.4157
G1 X74.0
G3 X63.5 Y86.9562 I0.0 J-38.5
G1 Y99.4157
G1 F300.0 X61.5
G1 F1200.0 Y153.3757
G1 X88.35
G1 Y86.4157
G1 X74.0
G3 X61.5 Y84.2086 I0.0 J-36.5
G1 Y99.4157
G1 F300.0 X59.5
G1 F1200.0 Y155.3757
G1 X90.35
G1 Y84.4157
G1 X74.0
G3 X59.5 Y81.2206 I0.0 J-34.5
G1 Y99.4157
G1 F300.0 X57.5
G1 F1200.0 Y157.3757
G1 X92.35
G1 Y82.4157
G1 X74.0
G3 X57.5 Y77.9157 I0.0 J-32.5
G1 Y99.4157
G1 F300.0 X55.5
G1 F1200.0 Y159.3757
G1 X94.35
G1 Y80.4157
G1 X74.0
G3 X55.5 Y74.1644 I0.0 J-30.5
G1 Y99.4157
G1 F300.0 X53.5
G1 F1200.0 Y161.3757
G1 X96.35
G1 Y78.4157
G1 X74.0
G3 X53.5 Y69.7147 I0.0 J-28.5
G1 Y99.4157
G1 F300.0 X51.5
G1 F1200.0 Y163.3757
G1 X98.35
G1 Y76.4157
G1 X74.0
G3 X51.5 Y63.9157 I0.0 J-26.5
G1 Y99.4157
G1 F300.0 X49.5
G1 F1200.0 Y165.3757
G1 X100.35
G1 Y74.4157
G1 X74.0
G3 X50.5124 Y56.8859 I0.0 J-24.5
G3 X49.5 Y59.6954 I-23.5124 J-6.8859
G1 Y99.4157
G1 F300.0 X47.5
G1 F1200.0 Y167.3757
G1 X102.35
G1 Y72.4157
G1 X74.0
G3 X51.5 Y49.9157 I0.0 J-22.5
G1 Y47.4288
G1 X49.5
G1 Y50.0
G3 X47.5 Y59.2736 I-22.5 J0.0
G1 Y99.4157
G1 F300.0 X45.5
G1 F1200.0 Y169.3757
G1 X104.35
G1 Y70.4157
G1 X74.0
G3 X53.5 Y49.9157 I0.0 J-20.5
G1 Y45.4288
G1 X47.5
G1 Y50.0
G3 X45.5 Y58.8318 I-20.5 J0.0
G1 Y99.4157
G1 F300.0 X43.5
G1 F1200.0 Y171.3757
G1 X106.35
G1 Y68.4157
G1 X74.0
G3 X55.5 Y49.9157 I0.0 J-18.5
G1 Y43.4288
G1 X45.5
G1 Y50.0
G3 X43.5 Y58.3666 I-18.5 J0.0
G1 Y99.4157
G1 F300.0 X41.5
G1 F1200.0 Y173.3757
G1 X108.35
G1 Y66.4157
G1 X74.0
G3 X57.5 Y49.9157 I0.0 J-16.5
G1 Y41.4288
G1 X43.5
G1 Y50.0
G3 X41.5 Y57.874 I-16.5 J0.0
G1 Y99.4157
G1 F300.0 X39.5
G1 F1200.0 Y175.3757
G1 X110.35
G1 Y64.4157
G1 X74.0
G3 X59.5 Y49.9157 I0.0 J-14.5
G1 Y39.4288
G1 X41.5
G1 Y50.0
G3 X39.5 Y57.3485 I-14.5 J0.0
G1 Y99.4157
G1 F300.0 X37.5
G1 F1200.0 Y177.3757
G1 X112.35
G1 Y62.4157
G1 X74.0
G3 X61.5 Y49.9157 I0.0 J-12.5
G1 Y37.4288
G1 X39.5
G1 Y50.0
G3 X37.5 Y56.7823 I-12.5 J0.0
G1 Y99.4157
G1 F300.0 X35.5
G1 F1200.0 Y179.3757
G1 X114.35
G1 Y60.4157
G1 X74.0
G3 X63.5 Y49.9157 I0.0 J-10.5
G1 Y35.4288
G1 X37.5
G1 Y50.0
G3 X35.5 Y56.1644 I-10.5 J0.0
G1 Y99.4157
G1 F300.0 X33.5
G1 F1200.0 Y181.3757
G1 X116.35
G1 Y58.4157
G1 X74.0
G3 X65.5 Y49.9157 I0.0 J-8.5
G1 Y33.4288
G1 X35.5
G1 Y50.0
G3 X33.5 Y55.4772 I-8.5 J0.0
G1 Y99.4157
G1 F300.0 X31.5
G1 F1200.0 Y183.3757
G1 X118.35
G1 Y56.4157
G1 X74.0
G3 X67.5 Y49.9157 I0.0 J-6.5
G1 Y31.4288
G1 X33.5
G1 Y50.0
G3 X31.5 Y54.6904 I-6.5 J0.0
G1 Y99.4157
G1 F300.0 X29.5
G1 F1200.0 Y185.3757
G1 X120.35
G1 Y54.4157
G1 X74.0
G3 X69.5 Y49.9157 I0.0 J-4.5
G1 Y29.4288
G1 X31.5
G1 Y50.0
G3 X29.4928 Y53.7464 I-4.5 J0.0
G3 X29.5 Y54.0 I-4.4928 J0.2536
G1 Y99.4157
G1 F300.0 X27.5
G1 F1200.0 Y187.3757
G1 X122.35
G1 Y52.4157
G1 X74.0
G3 X71.5 Y49.9157 I0.0 J-2.5
G1 Y27.4288
G1 X29.5
G1 Y50.0
G3 X27.0 Y52.5 I-2.5 J0.0
G3 X27.5 Y54.0 I-2.0 J1.5
G1 Y99.4157
G0 Z3.0
G0 X74.5
G0 Z0.0
G1 F300.0 Z-1.0
G1 F1200.0 Y140.3757 Z-1.3037
G1 X75.35 Z-1.31
G1 Y99.4157 Z-1.6137
G1 X74.5 Z-1.62
G1 Y140.3757
G1 X75.35
G1 Y99.4157
G1 X74.5
G1 F300.0 X73.5
G1 F1200.0 Y141.3757
G1 X76.35
G1 Y98.4157
G1 X74.0
G3 X73.5 Y98.4131 I0.0 J-48.5
G1 Y99.4157
G1 F300.0 X71.5
G1 F1200.0 Y143.3757
G1 X78.35
G1 Y96.4157
G1 X74.0
G3 X71.5 Y96.3484 I0.0 J-46.5
G1 Y99.4157
G1 F300.0 X69.5
G1 F1200.0 Y145.3757
G1 X80.35
G1 Y94.4157
G1 X74.0
G3 X69.5 Y94.1876 I0.0 J-44.5
G1 Y99.4157
G1 F300.0 X67.5
G1 F1200.0 Y147.3757
G1 X82.35
G1 Y92.4157
G1 X74.0
G3 X67.5 Y91.9157 I0.0 J-42.5
G1 Y99.4157
G1 F300.0 X65.5
G1 F1200.0 Y149.3757
G1 X84.35
G1 Y90.4157
G1 X74.0
G3 X65.5 Y89.5137 I0.0 J-40.5
G1 Y99.4157
G1 F300.0 X63.5
G1 F1200.0 Y151.3757
G1 X86.35
G1 Y88.4157
G1 X74.0
G3 X63.5 Y86.9562 I0.0 J-38.5
G1 Y99.4157
G1 F300.0 X61.5
G1 F1200.0 Y153.3757
G1 X88.35
G1 Y86.4157
G1 X74.0
G3 X61.5 Y84.2086 I0.0 J-36.5
G1 Y99.4157
G1 F300.0 X59.5
G1 F1200.0 Y155.3757
G1 X90.35
G1 Y84.4157
G1 X74.0
G3 X59.5 Y81.2206 I0.0 J-34.5
G1 Y99.4157
G1 F300.0 X57.5
G1 F1200.0 Y157.3757
G1 X92.35
G1 Y82.4157
G1 X74.0
G3 X57.5 Y77.9157 I0.0 J-32.5
G1 Y99.4157
G1 F300.0 X55.5
G1 F1200.0 Y159.3757
G1 X94.35
G1 Y80.4157
G1 X74.0
G3 X55.5 Y74.1644 I0.0 J-30.5
G1 Y99.4157
G1 F300.0 X53.5
G1 F1200.0 Y161.3757
G1 X96.35
G1 Y78.4157
G1 X74.0
G3 X53.5 Y69.7147 I0.0 J-28.5
G1 Y99.4157
G1 F300.0 X51.5
G1 F1200.0 Y163.3757
G1 X98.35
G1 Y76.4157
G1 X74.0
G3 X51.5 Y63.9157 I0.0 J-26.5
G1 Y99.4157
G1 F300.0 X49.5
G1 F1200.0 Y165.3757
G1 X100.35
G1 Y74.4157
G1 X74.0
G3 X50.5124 Y56.8859 I0.0 J-24.5
G3 X49.5 Y59.6954 I-23.5124 J-6.8859
G1 Y99.4157
G1 F300.0 X47.5
G1 F1200.0 Y167.3757
G1 X102.35
G1 Y72.4157
G1 X74.0
G3 X51.5 Y49.9157 I0.0 J-22.5
G1 Y47.4288
G1 X49.5
G1 Y50.0
G3 X47.5 Y59.2736 I-22.5 J0.0
G1 Y99.4157
G1 F300.0 X45.5
G1 F1200.0 Y169.3757
G1 X104.35
G1 Y70.4157
G1 X74.0
G3 X53.5 Y49.9157 I0.0 J-20.5
G1 Y45.4288
G1 X47.5
G1 Y50.0
G3 X45.5 Y58.8318 I-20.5 J0.0
G1 Y99.4157
G1 F300.0 X43.5
G1 F1200.0 Y171.3757
G1 X106.35
G1 Y68.4157
G1 X74.0
G3 X55.5 Y49.9157 I0.0 J-18.5
G1 Y43.4288
G1 X45.5
G1 Y50.0
G3 X43.5 Y58.3666 I-18.5 J0.0
G1 Y99.4157
G1 F300.0 X41.5
G1 F1200.0 Y173.3757
G1 X108.35
G1 Y66.4157
G1 X74.0
G3 X57.5 Y49.9157 I0.0 J-16.5
G1 Y41.4288
G1 X43.5
G1 Y50.0
G3 X41.5 Y57.874 I-16.5 J0.0
G1 Y99.4157
G1 F300.0 X39.5
G1 F1200.0 Y175.3757
G1 X110.35
G1 Y64.4157
G1 X74.0
G3 X59.5 Y49.9157 I0.0 J-14.5
G1 Y39.4288
G1 X41.5
G1 Y50.0
G3 X39.5 Y57.3485 I-14.5 J0.0
G1 Y99.4157
G1 F300.0 X37.5
G1 F1200.0 Y177.3757
G1 X112.35
G1 Y62.4157
G1 X74.0
G3 X61.5 Y49.9157 I0.0 J-12.5
G1 Y37.4288
G1 X39.5
G1 Y50.0
G3 X37.5 Y56.7823 I-12.5 J0.0
G1 Y99.4157
G1 F300.0 X35.5
G1 F1200.0 Y179.3757
G1 X114.35
G1 Y60.4157
G1 X74.0
G3 X63.5 Y49.9157 I0.0 J-10.5
G1 Y35.4288
G1 X37.5
G1 Y50.0
G3 X35.5 Y56.1644 I-10.5 J0.0
G1 Y99.4157
G1 F300.0 X33.5
G1 F1200.0 Y181.3757
G1 X116.35
G1 Y58.4157
G1 X74.0
G3 X65.5 Y49.9157 I0.0 J-8.5
G1 Y33.4288
G1 X35.5
G1 Y50.0
G3 X33.5 Y55.4772 I-8.5 J0.0
G1 Y99.4157
G1 F300.0 X31.5
G1 F1200.0 Y183.3757
G1 X118.35
G1 Y56.4157
G1 X74.0
G3 X67.5 Y49.9157 I0.0 J-6.5
G1 Y31.4288
G1 X33.5
G1 Y50.0
G3 X31.5 Y54.6904 I-6.5 J0.0
G1 Y99.4157
G1 F300.0 X29.5
G1 F1200.0 Y185.3757
G1 X120.35
G1 Y54.4157
G1 X74.0
G3 X69.5 Y49.9157 I0.0 J-4.5
G1 Y29.4288
G1 X31.5
G1 Y50.0
G3 X29.4928 Y53.7464 I-4.5 J0.0
G3 X29.5 Y54.0 I-4.4928 J0.2536
G1 Y99.4157
G1 F300.0 X27.5
G1 F1200.0 Y187.3757
G1 X122.35
G1 Y52.4157
G1 X74.0
G3 X71.5 Y49.9157 I0.0 J-2.5
G1 Y27.4288
G1 X29.5
G1 Y50.0
G3 X27.0 Y52.5 I-2.5 J0.0
G3 X27.5 Y54.0 I-2.0 J1.5
G1 Y99.4157
G0 Z3.0
M5
M30
