( Made using CamBam - http://www.cambam.co.uk )
( Support PCB BM13xx-16 01a 5/18/2024 8:25:20 PM )
( Post processor: Mach3 )
( T0 : 3.0 )
G21 G90 G64 G40
G91.1
G0 Z3.0
( T0 : 3.0 )
T0 M6
( Contour1 )
G17
M3 S1000
G0 X25.6753 Y189.4153
G0 Z1.35
G1 F300.0 Z0.35
G3 F800.0 X25.025 Y189.5636 Z-0.0125 I-0.6503 J-1.3517
G2 X24.774 Y189.6308 Z-0.1542 I0.0 J0.502
G2 Y190.5003 Z-0.7208 I0.251 J0.4347
G2 X25.527 Y190.0656 Z-1.2875 I0.251 J-0.4347
G3 X25.6753 Y189.4153 Z-1.65 I1.5 J0.0
G3 X25.025 Y189.5636 I-0.6503 J-1.3517
G2 X24.774 Y189.6308 I0.0 J0.502
G2 Y190.5003 I0.251 J0.4347
G2 X25.527 Y190.0656 I0.251 J-0.4347
G3 X25.6753 Y189.4153 I1.5 J0.0
G1 F300.0 X26.3767 Y188.7139
G3 F800.0 X27.027 Y188.5656 I0.6503 J1.3517
G1 X122.9729
G3 X123.6231 Y188.7139 I0.0 J1.5
G3 X123.4749 Y188.0636 I1.3517 J-0.6503
G1 Y51.9676
G3 X123.6231 Y51.3173 I1.5 J0.0
G3 X122.9729 Y51.4656 I-0.6503 J-1.3517
G1 X74.074
G3 X72.574 Y49.9656 I0.0 J-1.5
G1 Y26.4537
G1 X28.527
G1 Y50.05
G3 X27.027 Y51.55 I-1.5 J0.0
G1 X25.025
G2 X24.774 Y51.6173 I0.0 J0.502
G2 Y52.4867 I0.251 J0.4347
G2 X25.025 Y52.554 I0.251 J-0.4347
G3 X26.525 Y54.054 I0.0 J1.5
G1 Y188.0636
G3 X26.3767 Y188.7139 I-1.5 J0.0
G0 Z3.0
G0 X124.3246 Y189.4153
G0 Z1.35
G1 F300.0 Z0.35
G3 F800.0 X124.4729 Y190.0656 Z-0.0125 I-1.3517 J0.6503
G2 X124.7239 Y190.5003 Z-0.2958 I0.502 J0.0
G2 X125.4769 Y190.0656 Z-0.8625 I0.251 J-0.4347
G2 X124.9749 Y189.5636 Z-1.2875 I-0.502 J0.0
G3 X124.3246 Y189.4153 Z-1.65 I0.0 J-1.5
G3 X124.4729 Y190.0656 I-1.3517 J0.6503
G2 X124.7239 Y190.5003 I0.502 J0.0
G2 X125.4769 Y190.0656 I0.251 J-0.4347
G2 X124.9749 Y189.5636 I-0.502 J0.0
G3 X124.3246 Y189.4153 I0.0 J-1.5
G0 Z3.0
G0 Y50.6159
G0 Z1.35
G1 F300.0 Z0.35
G3 F800.0 X124.9749 Y50.4676 Z-0.0125 I0.6503 J1.3517
G2 X125.4769 Y49.9656 Z-0.4375 I0.0 J-0.502
G2 X124.7239 Y49.5309 Z-1.0042 I-0.502 J0.0
G2 X124.4729 Y49.9656 Z-1.2875 I0.251 J0.4347
G3 X124.3246 Y50.6159 Z-1.65 I-1.5 J0.0
G3 X124.9749 Y50.4676 I0.6503 J1.3517
G2 X125.4769 Y49.9656 I0.0 J-0.502
G2 X124.7239 Y49.5309 I-0.502 J0.0
G2 X124.4729 Y49.9656 I0.251 J0.4347
G3 X124.3246 Y50.6159 I-1.5 J0.0
G0 Z3.0
M5
M30
