( Made using CamBam - http://www.cambam.co.uk )
( Support PCB BM13xx-16 01a 5/18/2024 3:04:49 PM )
( Post processor: Mach3 )
( T0 : 3.0 )
G21 G90 G64 G40
G91.1
G0 Z3.0
( T0 : 3.0 )
T0 M6
( Poche1 )
G17
M3 S1000
G0 X115.15 Y154.0684
G0 Z1.0
G1 F300.0 Z0.0
G2 F1200.0 Y152.8316 Z-0.5508 I-0.328 J-0.6184
G1 Y154.0684 Z-1.0
G1 F300.0 X114.55
G1 F1200.0 Y154.7212
G2 Y152.1788 I0.272 J-1.2712
G1 Y154.0684
G1 F300.0 X113.35
G1 F1200.0 Y155.4707
G2 Y151.4293 I1.472 J-2.0207
G1 Y154.0684
G1 F300.0 X115.15
G2 F1200.0 Y152.8316 Z-1.5508 I-0.328 J-0.6184
G1 Y154.0684 Z-2.0
G1 F300.0 X114.55
G1 F1200.0 Y154.7212
G2 Y152.1788 I0.272 J-1.2712
G1 Y154.0684
G1 F300.0 X113.35
G1 F1200.0 Y155.4707
G2 Y151.4293 I1.472 J-2.0207
G1 Y154.0684
G1 F300.0 X115.15
G2 F1200.0 Y152.8316 Z-2.5508 I-0.328 J-0.6184
G1 Y154.0684 Z-3.0
G1 F300.0 X114.55
G1 F1200.0 Y154.7212
G2 Y152.1788 I0.272 J-1.2712
G1 Y154.0684
G1 F300.0 X113.35
G1 F1200.0 Y155.4707
G2 Y151.4293 I1.472 J-2.0207
G1 Y154.0684
G1 F300.0 X115.15
G2 F1200.0 Y152.8316 Z-3.5508 I-0.328 J-0.6184
G1 Y154.0684 Z-4.0
G1 F300.0 X114.55
G1 F1200.0 Y154.7212
G2 Y152.1788 I0.272 J-1.2712
G1 Y154.0684
G1 F300.0 X113.35
G1 F1200.0 Y155.4707
G2 Y151.4293 I1.472 J-2.0207
G1 Y154.0684
G1 F300.0 X115.15
G2 F1200.0 Y152.8316 Z-4.5508 I-0.328 J-0.6184
G1 Y154.0684 Z-5.0
G2 Y152.8316 I-0.328 J-0.6184
G1 Y154.0684
G1 F300.0 X114.55
G1 F1200.0 Y154.7212
G2 Y152.1788 I0.272 J-1.2712
G1 Y154.0684
G1 F300.0 X113.35
G1 F1200.0 Y155.4707
G2 Y151.4293 I1.472 J-2.0207
G1 Y154.0684
G0 Z3.0
G0 X74.55
G0 Z1.0
G1 F300.0 Z0.0
G1 F1200.0 Y152.7882 Z-0.3665
G2 X74.15 Y152.7715 Z-0.4828 I-0.228 J0.6618
G1 Y154.1285 Z-0.8713
G2 X74.55 Y154.1118 Z-0.9876 I0.172 J-0.6785
G1 Y154.0684 Z-1.0
G1 F300.0 X75.15
G1 F1200.0 Y152.4478
G2 X73.55 Y152.404 I-0.828 J1.0022
G1 Y154.496
G2 X75.15 Y154.4522 I0.772 J-1.046
G1 Y154.0684
G1 F300.0 X76.35
G1 F1200.0 Y151.9881
G2 X72.35 Y151.9134 I-2.028 J1.4619
G1 Y154.9866
G2 X76.35 Y154.9119 I1.972 J-1.5366
G1 Y154.0684
G1 F300.0 X74.55
G1 F1200.0 Y152.7882 Z-1.3665
G2 X74.15 Y152.7715 Z-1.4828 I-0.228 J0.6618
G1 Y154.1285 Z-1.8713
G2 X74.55 Y154.1118 Z-1.9876 I0.172 J-0.6785
G1 Y154.0684 Z-2.0
G1 F300.0 X75.15
G1 F1200.0 Y152.4478
G2 X73.55 Y152.404 I-0.828 J1.0022
G1 Y154.496
G2 X75.15 Y154.4522 I0.772 J-1.046
G1 Y154.0684
G1 F300.0 X76.35
G1 F1200.0 Y151.9881
G2 X72.35 Y151.9134 I-2.028 J1.4619
G1 Y154.9866
G2 X76.35 Y154.9119 I1.972 J-1.5366
G1 Y154.0684
G1 F300.0 X74.55
G1 F1200.0 Y152.7882 Z-2.3665
G2 X74.15 Y152.7715 Z-2.4828 I-0.228 J0.6618
G1 Y154.1285 Z-2.8713
G2 X74.55 Y154.1118 Z-2.9876 I0.172 J-0.6785
G1 Y154.0684 Z-3.0
G1 F300.0 X75.15
G1 F1200.0 Y152.4478
G2 X73.55 Y152.404 I-0.828 J1.0022
G1 Y154.496
G2 X75.15 Y154.4522 I0.772 J-1.046
G1 Y154.0684
G1 F300.0 X76.35
G1 F1200.0 Y151.9881
G2 X72.35 Y151.9134 I-2.028 J1.4619
G1 Y154.9866
G2 X76.35 Y154.9119 I1.972 J-1.5366
G1 Y154.0684
G1 F300.0 X74.55
G1 F1200.0 Y152.7882 Z-3.3665
G2 X74.15 Y152.7715 Z-3.4828 I-0.228 J0.6618
G1 Y154.1285 Z-3.8713
G2 X74.55 Y154.1118 Z-3.9876 I0.172 J-0.6785
G1 Y154.0684 Z-4.0
G1 F300.0 X75.15
G1 F1200.0 Y152.4478
G2 X73.55 Y152.404 I-0.828 J1.0022
G1 Y154.496
G2 X75.15 Y154.4522 I0.772 J-1.046
G1 Y154.0684
G1 F300.0 X76.35
G1 F1200.0 Y151.9881
G2 X72.35 Y151.9134 I-2.028 J1.4619
G1 Y154.9866
G2 X76.35 Y154.9119 I1.972 J-1.5366
G1 Y154.0684
G1 F300.0 X74.55
G1 F1200.0 Y152.7882 Z-4.3665
G2 X74.15 Y152.7715 Z-4.4828 I-0.228 J0.6618
G1 Y154.1285 Z-4.8713
G2 X74.55 Y154.1118 Z-4.9876 I0.172 J-0.6785
G1 Y154.0684 Z-5.0
G1 Y152.7882
G2 X74.15 Y152.7715 I-0.228 J0.6618
G1 Y154.1285
G2 X74.55 Y154.1118 I0.172 J-0.6785
G1 Y154.0684
G1 F300.0 X75.15
G1 F1200.0 Y152.4478
G2 X73.55 Y152.404 I-0.828 J1.0022
G1 Y154.496
G2 X75.15 Y154.4522 I0.772 J-1.046
G1 Y154.0684
G1 F300.0 X76.35
G1 F1200.0 Y151.9881
G2 X72.35 Y151.9134 I-2.028 J1.4619
G1 Y154.9866
G2 X76.35 Y154.9119 I1.972 J-1.5366
G1 Y154.0684
G0 Z3.0
G0 X74.3447 Y92.1496
G0 Z1.0
G1 F300.0 Z0.0
G2 F1200.0 X74.55 Y92.1118 Z-0.0526 I-0.0227 J-0.6996
G1 Y90.7882 Z-0.3845
G2 X74.3447 Y92.1496 Z-1.0 I-0.228 J0.6618
G1 F300.0 X74.3641 Y92.7493
G2 F1200.0 X75.15 Y92.4522 I-0.0421 J-1.2993
G1 Y90.4478
G2 X74.3641 Y92.7493 I-0.828 J1.0022
G1 F300.0 X74.4029 Y93.9487
G2 F1200.0 X76.35 Y92.9119 I-0.0809 J-2.4987
G1 Y89.9881
G2 X74.4029 Y93.9487 I-2.028 J1.4619
G1 F300.0 X74.3447 Y92.1496
G2 F1200.0 X74.55 Y92.1118 Z-1.0526 I-0.0227 J-0.6996
G1 Y90.7882 Z-1.3845
G2 X74.3447 Y92.1496 Z-2.0 I-0.228 J0.6618
G1 F300.0 X74.3641 Y92.7493
G2 F1200.0 X75.15 Y92.4522 I-0.0421 J-1.2993
G1 Y90.4478
G2 X74.3641 Y92.7493 I-0.828 J1.0022
G1 F300.0 X74.4029 Y93.9487
G2 F1200.0 X76.35 Y92.9119 I-0.0809 J-2.4987
G1 Y89.9881
G2 X74.4029 Y93.9487 I-2.028 J1.4619
G1 F300.0 X74.3447 Y92.1496
G2 F1200.0 X74.55 Y92.1118 Z-2.0526 I-0.0227 J-0.6996
G1 Y90.7882 Z-2.3845
G2 X74.3447 Y92.1496 Z-3.0 I-0.228 J0.6618
G1 F300.0 X74.3641 Y92.7493
G2 F1200.0 X75.15 Y92.4522 I-0.0421 J-1.2993
G1 Y90.4478
G2 X74.3641 Y92.7493 I-0.828 J1.0022
G1 F300.0 X74.4029 Y93.9487
G2 F1200.0 X76.35 Y92.9119 I-0.0809 J-2.4987
G1 Y89.9881
G2 X74.4029 Y93.9487 I-2.028 J1.4619
G1 F300.0 X74.3447 Y92.1496
G2 F1200.0 X74.55 Y92.1118 Z-3.0526 I-0.0227 J-0.6996
G1 Y90.7882 Z-3.3845
G2 X74.3447 Y92.1496 Z-4.0 I-0.228 J0.6618
G1 F300.0 X74.3641 Y92.7493
G2 F1200.0 X75.15 Y92.4522 I-0.0421 J-1.2993
G1 Y90.4478
G2 X74.3641 Y92.7493 I-0.828 J1.0022
G1 F300.0 X74.4029 Y93.9487
G2 F1200.0 X76.35 Y92.9119 I-0.0809 J-2.4987
G1 Y89.9881
G2 X74.4029 Y93.9487 I-2.028 J1.4619
G1 F300.0 X74.3447 Y92.1496
G2 F1200.0 X74.55 Y92.1118 Z-4.0526 I-0.0227 J-0.6996
G1 Y90.7882 Z-4.3845
G2 X74.3447 Y92.1496 Z-5.0 I-0.228 J0.6618
G2 X74.55 Y92.1118 I-0.0227 J-0.6996
G1 Y90.7882
G2 X74.3447 Y92.1496 I-0.228 J0.6618
G1 F300.0 X74.3641 Y92.7493
G2 F1200.0 X75.15 Y92.4522 I-0.0421 J-1.2993
G1 Y90.4478
G2 X74.3641 Y92.7493 I-0.828 J1.0022
G1 F300.0 X74.4029 Y93.9487
G2 F1200.0 X76.35 Y92.9119 I-0.0809 J-2.4987
G1 Y89.9881
G2 X74.4029 Y93.9487 I-2.028 J1.4619
G0 Z3.0
G0 X115.15 Y92.0684
G0 Z1.0
G1 F300.0 Z0.0
G2 F1200.0 Y90.8316 Z-0.5508 I-0.328 J-0.6184
G1 Y92.0684 Z-1.0
G1 F300.0 X115.4311 Y92.5985
G2 F1200.0 X114.55 Y90.1788 I-0.6091 J-1.1485
G1 Y92.7212
G2 X115.4311 Y92.5985 I0.272 J-1.2712
G1 F300.0 X115.9934 Y93.6586
G2 F1200.0 X113.35 Y89.4293 I-1.1714 J-2.2086
G1 Y93.4707
G2 X115.9934 Y93.6586 I1.472 J-2.0207
G1 F300.0 X115.15 Y92.0684
G2 F1200.0 Y90.8316 Z-1.5508 I-0.328 J-0.6184
G1 Y92.0684 Z-2.0
G1 F300.0 X115.4311 Y92.5985
G2 F1200.0 X114.55 Y90.1788 I-0.6091 J-1.1485
G1 Y92.7212
G2 X115.4311 Y92.5985 I0.272 J-1.2712
G1 F300.0 X115.9934 Y93.6586
G2 F1200.0 X113.35 Y89.4293 I-1.1714 J-2.2086
G1 Y93.4707
G2 X115.9934 Y93.6586 I1.472 J-2.0207
G1 F300.0 X115.15 Y92.0684
G2 F1200.0 Y90.8316 Z-2.5508 I-0.328 J-0.6184
G1 Y92.0684 Z-3.0
G1 F300.0 X115.4311 Y92.5985
G2 F1200.0 X114.55 Y90.1788 I-0.6091 J-1.1485
G1 Y92.7212
G2 X115.4311 Y92.5985 I0.272 J-1.2712
G1 F300.0 X115.9934 Y93.6586
G2 F1200.0 X113.35 Y89.4293 I-1.1714 J-2.2086
G1 Y93.4707
G2 X115.9934 Y93.6586 I1.472 J-2.0207
G1 F300.0 X115.15 Y92.0684
G2 F1200.0 Y90.8316 Z-3.5508 I-0.328 J-0.6184
G1 Y92.0684 Z-4.0
G1 F300.0 X115.4311 Y92.5985
G2 F1200.0 X114.55 Y90.1788 I-0.6091 J-1.1485
G1 Y92.7212
G2 X115.4311 Y92.5985 I0.272 J-1.2712
G1 F300.0 X115.9934 Y93.6586
G2 F1200.0 X113.35 Y89.4293 I-1.1714 J-2.2086
G1 Y93.4707
G2 X115.9934 Y93.6586 I1.472 J-2.0207
G1 F300.0 X115.15 Y92.0684
G2 F1200.0 Y90.8316 Z-4.5508 I-0.328 J-0.6184
G1 Y92.0684 Z-5.0
G2 Y90.8316 I-0.328 J-0.6184
G1 Y92.0684
G1 F300.0 X115.4311 Y92.5985
G2 F1200.0 X114.55 Y90.1788 I-0.6091 J-1.1485
G1 Y92.7212
G2 X115.4311 Y92.5985 I0.272 J-1.2712
G1 F300.0 X115.9934 Y93.6586
G2 F1200.0 X113.35 Y89.4293 I-1.1714 J-2.2086
G1 Y93.4707
G2 X115.9934 Y93.6586 I1.472 J-2.0207
( Poche2 )
S1000
G0 Z3.0
G0 X85.35 Y68.3757
G0 Z1.0
G1 F300.0 Z0.0
G1 F1200.0 Y89.565 Z-0.198
G1 Y93.335 Z-0.2333
G1 Y151.565 Z-0.7775
G1 Y155.335 Z-0.8127
G1 Y175.3757 Z-1.0
G1 Y155.335
G1 Y151.565
G1 Y93.335
G1 Y89.565
G1 Y68.3757
G0 Z3.0
G0 X84.15 Y175.3757
G0 Z1.0
G1 F300.0 Z0.0
G1 F1200.0 Y176.5757 Z-0.0054
G1 X86.55 Z-0.0161
G1 Y67.1757 Z-0.5054
G1 X84.15 Z-0.5161
G1 Y89.565 Z-0.6162
G1 Y93.335 Z-0.6331
G1 Y151.565 Z-0.8935
G1 Y155.335 Z-0.9104
G1 Y175.3757 Z-1.0
G1 F300.0 X82.95
G1 F1200.0 Y177.7757
G1 X87.75
G1 Y65.9757
G1 X82.95
G1 Y89.565
G1 Y93.335
G1 Y151.565
G1 Y155.335
G1 Y175.3757
G1 F300.0 X81.75
G1 F1200.0 Y177.8757
G2 X82.85 Y178.9757 I1.1 J0.0
G1 X87.85
G2 X88.95 Y177.8757 I0.0 J-1.1
G1 Y65.8757
G2 X87.85 Y64.7757 I-1.1 J0.0
G1 X82.85
G2 X81.75 Y65.8757 I0.0 J1.1
G1 Y89.565
G1 Y93.335
G1 Y151.565
G1 Y155.335
G1 Y175.3757
G1 F300.0 X80.55
G1 F1200.0 Y177.8757
G2 X82.85 Y180.1757 I2.3 J0.0
G1 X87.85
G2 X90.15 Y177.8757 I0.0 J-2.3
G1 Y65.8757
G2 X87.85 Y63.5757 I-2.3 J0.0
G1 X82.85
G2 X80.55 Y65.8757 I0.0 J2.3
G1 Y89.565
G1 Y93.335
G1 Y151.565
G1 Y155.335
G1 Y175.3757
G1 F300.0 X79.35
G1 F1200.0 Y177.8757
G2 X82.85 Y181.3757 I3.5 J0.0
G1 X87.85
G2 X91.35 Y177.8757 I0.0 J-3.5
G1 Y65.8757
G2 X87.85 Y62.3757 I-3.5 J0.0
G1 X82.85
G2 X79.35 Y65.8757 I0.0 J3.5
G1 Y89.565
G1 Y93.335
G1 Y151.565
G1 Y155.335
G1 Y175.3757
G0 Z3.0
G0 X85.35 Y68.3757
G0 Z0.0
G1 F300.0 Z-1.0
G1 F1200.0 Y89.565 Z-1.198
G1 Y93.335 Z-1.2333
G1 Y151.565 Z-1.7775
G1 Y155.335 Z-1.8127
G1 Y175.3757 Z-2.0
G1 Y155.335
G1 Y151.565
G1 Y93.335
G1 Y89.565
G1 Y68.3757
G0 Z3.0
G0 X84.15 Y175.3757
G0 Z0.0
G1 F300.0 Z-1.0
G1 F1200.0 Y176.5757 Z-1.0054
G1 X86.55 Z-1.0161
G1 Y67.1757 Z-1.5054
G1 X84.15 Z-1.5161
G1 Y89.565 Z-1.6162
G1 Y93.335 Z-1.6331
G1 Y151.565 Z-1.8935
G1 Y155.335 Z-1.9104
G1 Y175.3757 Z-2.0
G1 F300.0 X82.95
G1 F1200.0 Y177.7757
G1 X87.75
G1 Y65.9757
G1 X82.95
G1 Y89.565
G1 Y93.335
G1 Y151.565
G1 Y155.335
G1 Y175.3757
G1 F300.0 X81.75
G1 F1200.0 Y177.8757
G2 X82.85 Y178.9757 I1.1 J0.0
G1 X87.85
G2 X88.95 Y177.8757 I0.0 J-1.1
G1 Y65.8757
G2 X87.85 Y64.7757 I-1.1 J0.0
G1 X82.85
G2 X81.75 Y65.8757 I0.0 J1.1
G1 Y89.565
G1 Y93.335
G1 Y151.565
G1 Y155.335
G1 Y175.3757
G1 F300.0 X80.55
G1 F1200.0 Y177.8757
G2 X82.85 Y180.1757 I2.3 J0.0
G1 X87.85
G2 X90.15 Y177.8757 I0.0 J-2.3
G1 Y65.8757
G2 X87.85 Y63.5757 I-2.3 J0.0
G1 X82.85
G2 X80.55 Y65.8757 I0.0 J2.3
G1 Y89.565
G1 Y93.335
G1 Y151.565
G1 Y155.335
G1 Y175.3757
G1 F300.0 X79.35
G1 F1200.0 Y177.8757
G2 X82.85 Y181.3757 I3.5 J0.0
G1 X87.85
G2 X91.35 Y177.8757 I0.0 J-3.5
G1 Y65.8757
G2 X87.85 Y62.3757 I-3.5 J0.0
G1 X82.85
G2 X79.35 Y65.8757 I0.0 J3.5
G1 Y89.565
G1 Y93.335
G1 Y151.565
G1 Y155.335
G1 Y175.3757
G0 Z3.0
G0 X85.35 Y68.3757
G0 Z-1.0
G1 F300.0 Z-2.0
G1 F1200.0 Y89.565 Z-2.198
G1 Y93.335 Z-2.2333
G1 Y151.565 Z-2.7775
G1 Y155.335 Z-2.8127
G1 Y175.3757 Z-3.0
G1 Y155.335
G1 Y151.565
G1 Y93.335
G1 Y89.565
G1 Y68.3757
G0 Z3.0
G0 X84.15 Y175.3757
G0 Z-1.0
G1 F300.0 Z-2.0
G1 F1200.0 Y176.5757 Z-2.0054
G1 X86.55 Z-2.0161
G1 Y67.1757 Z-2.5054
G1 X84.15 Z-2.5161
G1 Y89.565 Z-2.6162
G1 Y93.335 Z-2.6331
G1 Y151.565 Z-2.8935
G1 Y155.335 Z-2.9104
G1 Y175.3757 Z-3.0
G1 Y176.5757
G1 X86.55
G1 Y67.1757
G1 X84.15
G1 Y89.565
G1 Y93.335
G1 Y151.565
G1 Y155.335
G1 Y175.3757
G1 F300.0 X82.95
G1 F1200.0 Y177.7757
G1 X87.75
G1 Y65.9757
G1 X82.95
G1 Y89.565
G1 Y93.335
G1 Y151.565
G1 Y155.335
G1 Y175.3757
G1 F300.0 X81.75
G1 F1200.0 Y177.8757
G2 X82.85 Y178.9757 I1.1 J0.0
G1 X87.85
G2 X88.95 Y177.8757 I0.0 J-1.1
G1 Y65.8757
G2 X87.85 Y64.7757 I-1.1 J0.0
G1 X82.85
G2 X81.75 Y65.8757 I0.0 J1.1
G1 Y89.565
G1 Y93.335
G1 Y151.565
G1 Y155.335
G1 Y175.3757
G1 F300.0 X80.55
G1 F1200.0 Y177.8757
G2 X82.85 Y180.1757 I2.3 J0.0
G1 X87.85
G2 X90.15 Y177.8757 I0.0 J-2.3
G1 Y65.8757
G2 X87.85 Y63.5757 I-2.3 J0.0
G1 X82.85
G2 X80.55 Y65.8757 I0.0 J2.3
G1 Y89.565
G1 Y93.335
G1 Y151.565
G1 Y155.335
G1 Y175.3757
G1 F300.0 X79.35
G1 F1200.0 Y177.8757
G2 X82.85 Y181.3757 I3.5 J0.0
G1 X87.85
G2 X91.35 Y177.8757 I0.0 J-3.5
G1 Y65.8757
G2 X87.85 Y62.3757 I-3.5 J0.0
G1 X82.85
G2 X79.35 Y65.8757 I0.0 J3.5
G1 Y89.565
G1 Y93.335
G1 Y151.565
G1 Y155.335
G1 Y175.3757
G0 Z3.0
G0 X62.75
G0 Z1.0
G1 F300.0 Z0.0
G1 F1200.0 Y155.4363 Z-0.1001
G1 Y151.4637 Z-0.12
G1 Y93.4363 Z-0.4113
G1 Y89.4637 Z-0.4313
G1 Y80.9757 Z-0.4739
G1 X61.95 Z-0.4779
G1 Y179.7757 Z-0.9739
G1 X62.75 Z-0.9779
G1 Y175.3757 Z-1.0
G1 F300.0 X63.35
G1 F1200.0 Y155.4363
G1 Y151.4637
G1 Y93.4363
G1 Y89.4637
G1 Y80.3757
G1 X61.35
G1 Y180.3757
G1 X63.35
G1 Y175.3757
G1 F300.0 X64.55
G1 F1200.0 Y155.4363
G1 Y151.4637
G1 Y93.4363
G1 Y89.4637
G1 Y79.1757
G1 X60.15
G1 Y181.5757
G1 X64.55
G1 Y175.3757
G1 F300.0 X65.75
G1 F1200.0 Y155.4363
G1 Y151.4637
G1 Y93.4363
G1 Y89.4637
G1 Y77.9757
G1 X58.95
G1 Y182.7757
G1 X65.75
G1 Y175.3757
G1 F300.0 X66.95
G1 F1200.0 Y155.4363
G1 Y151.4637
G1 Y93.4363
G1 Y89.4637
G1 Y77.8757
G2 X65.85 Y76.7757 I-1.1 J0.0
G1 X58.85
G2 X57.75 Y77.8757 I0.0 J1.1
G1 Y182.8757
G2 X58.85 Y183.9757 I1.1 J0.0
G1 X65.85
G2 X66.95 Y182.8757 I0.0 J-1.1
G1 Y175.3757
G1 F300.0 X68.15
G1 F1200.0 Y155.4363
G1 Y151.4637
G1 Y93.4363
G1 Y89.4637
G1 Y77.8757
G2 X65.85 Y75.5757 I-2.3 J0.0
G1 X58.85
G2 X56.55 Y77.8757 I0.0 J2.3
G1 Y182.8757
G2 X58.85 Y185.1757 I2.3 J0.0
G1 X65.85
G2 X68.15 Y182.8757 I0.0 J-2.3
G1 Y175.3757
G1 F300.0 X69.35
G1 F1200.0 Y155.4363
G1 Y151.4637
G1 Y93.4363
G1 Y89.4637
G1 Y77.8757
G2 X65.85 Y74.3757 I-3.5 J0.0
G1 X58.85
G2 X55.35 Y77.8757 I0.0 J3.5
G1 Y182.8757
G2 X58.85 Y186.3757 I3.5 J0.0
G1 X65.85
G2 X69.35 Y182.8757 I0.0 J-3.5
G1 Y175.3757
G0 Z3.0
G0 X62.75
G0 Z0.0
G1 F300.0 Z-1.0
G1 F1200.0 Y155.4363 Z-1.1001
G1 Y151.4637 Z-1.12
G1 Y93.4363 Z-1.4113
G1 Y89.4637 Z-1.4313
G1 Y80.9757 Z-1.4739
G1 X61.95 Z-1.4779
G1 Y179.7757 Z-1.9739
G1 X62.75 Z-1.9779
G1 Y175.3757 Z-2.0
G1 F300.0 X63.35
G1 F1200.0 Y155.4363
G1 Y151.4637
G1 Y93.4363
G1 Y89.4637
G1 Y80.3757
G1 X61.35
G1 Y180.3757
G1 X63.35
G1 Y175.3757
G1 F300.0 X64.55
G1 F1200.0 Y155.4363
G1 Y151.4637
G1 Y93.4363
G1 Y89.4637
G1 Y79.1757
G1 X60.15
G1 Y181.5757
G1 X64.55
G1 Y175.3757
G1 F300.0 X65.75
G1 F1200.0 Y155.4363
G1 Y151.4637
G1 Y93.4363
G1 Y89.4637
G1 Y77.9757
G1 X58.95
G1 Y182.7757
G1 X65.75
G1 Y175.3757
G1 F300.0 X66.95
G1 F1200.0 Y155.4363
G1 Y151.4637
G1 Y93.4363
G1 Y89.4637
G1 Y77.8757
G2 X65.85 Y76.7757 I-1.1 J0.0
G1 X58.85
G2 X57.75 Y77.8757 I0.0 J1.1
G1 Y182.8757
G2 X58.85 Y183.9757 I1.1 J0.0
G1 X65.85
G2 X66.95 Y182.8757 I0.0 J-1.1
G1 Y175.3757
G1 F300.0 X68.15
G1 F1200.0 Y155.4363
G1 Y151.4637
G1 Y93.4363
G1 Y89.4637
G1 Y77.8757
G2 X65.85 Y75.5757 I-2.3 J0.0
G1 X58.85
G2 X56.55 Y77.8757 I0.0 J2.3
G1 Y182.8757
G2 X58.85 Y185.1757 I2.3 J0.0
G1 X65.85
G2 X68.15 Y182.8757 I0.0 J-2.3
G1 Y175.3757
G1 F300.0 X69.35
G1 F1200.0 Y155.4363
G1 Y151.4637
G1 Y93.4363
G1 Y89.4637
G1 Y77.8757
G2 X65.85 Y74.3757 I-3.5 J0.0
G1 X58.85
G2 X55.35 Y77.8757 I0.0 J3.5
G1 Y182.8757
G2 X58.85 Y186.3757 I3.5 J0.0
G1 X65.85
G2 X69.35 Y182.8757 I0.0 J-3.5
G1 Y175.3757
G0 Z3.0
G0 X62.75
G0 Z-1.0
G1 F300.0 Z-2.0
G1 F1200.0 Y155.4363 Z-2.1001
G1 Y151.4637 Z-2.12
G1 Y93.4363 Z-2.4113
G1 Y89.4637 Z-2.4313
G1 Y80.9757 Z-2.4739
G1 X61.95 Z-2.4779
G1 Y179.7757 Z-2.9739
G1 X62.75 Z-2.9779
G1 Y175.3757 Z-3.0
G1 Y155.4363
G1 Y151.4637
G1 Y93.4363
G1 Y89.4637
G1 Y80.9757
G1 X61.95
G1 Y179.7757
G1 X62.75
G1 Y175.3757
G1 F300.0 X63.35
G1 F1200.0 Y155.4363
G1 Y151.4637
G1 Y93.4363
G1 Y89.4637
G1 Y80.3757
G1 X61.35
G1 Y180.3757
G1 X63.35
G1 Y175.3757
G1 F300.0 X64.55
G1 F1200.0 Y155.4363
G1 Y151.4637
G1 Y93.4363
G1 Y89.4637
G1 Y79.1757
G1 X60.15
G1 Y181.5757
G1 X64.55
G1 Y175.3757
G1 F300.0 X65.75
G1 F1200.0 Y155.4363
G1 Y151.4637
G1 Y93.4363
G1 Y89.4637
G1 Y77.9757
G1 X58.95
G1 Y182.7757
G1 X65.75
G1 Y175.3757
G1 F300.0 X66.95
G1 F1200.0 Y155.4363
G1 Y151.4637
G1 Y93.4363
G1 Y89.4637
G1 Y77.8757
G2 X65.85 Y76.7757 I-1.1 J0.0
G1 X58.85
G2 X57.75 Y77.8757 I0.0 J1.1
G1 Y182.8757
G2 X58.85 Y183.9757 I1.1 J0.0
G1 X65.85
G2 X66.95 Y182.8757 I0.0 J-1.1
G1 Y175.3757
G1 F300.0 X68.15
G1 F1200.0 Y155.4363
G1 Y151.4637
G1 Y93.4363
G1 Y89.4637
G1 Y77.8757
G2 X65.85 Y75.5757 I-2.3 J0.0
G1 X58.85
G2 X56.55 Y77.8757 I0.0 J2.3
G1 Y182.8757
G2 X58.85 Y185.1757 I2.3 J0.0
G1 X65.85
G2 X68.15 Y182.8757 I0.0 J-2.3
G1 Y175.3757
G1 F300.0 X69.35
G1 F1200.0 Y155.4363
G1 Y151.4637
G1 Y93.4363
G1 Y89.4637
G1 Y77.8757
G2 X65.85 Y74.3757 I-3.5 J0.0
G1 X58.85
G2 X55.35 Y77.8757 I0.0 J3.5
G1 Y182.8757
G2 X58.85 Y186.3757 I3.5 J0.0
G1 X65.85
G2 X69.35 Y182.8757 I0.0 J-3.5
G1 Y175.3757
G0 Z3.0
G0 X104.35
G0 Z1.0
G1 F300.0 Z0.0
G1 F1200.0 Y156.1272 Z-0.1511
G1 Y150.7728 Z-0.1931
G1 Y94.1272 Z-0.6378
G1 Y88.7728 Z-0.6798
G1 Y68.3757 Z-0.8399
G1 Y88.7728 Z-1.0
G1 Y68.3757
G1 Y88.7728
G1 Y94.1272
G1 Y150.7728
G1 Y156.1272
G1 Y175.3757
G0 Z3.0
G0 X105.55 Y88.7728
G0 Z1.0
G1 F300.0 Z0.0
G1 F1200.0 Y67.1757 Z-0.0966
G1 X103.15 Z-0.1073
G1 Y176.5757 Z-0.5966
G1 X105.55 Z-0.6073
G1 Y156.1272 Z-0.6988
G1 Y150.7728 Z-0.7227
G1 Y94.1272 Z-0.9761
G1 Y88.7728 Z-1.0
G1 F300.0 X106.75
G1 F1200.0 Y65.9757
G1 X101.95
G1 Y177.7757
G1 X106.75
G1 Y156.1272
G1 Y150.7728
G1 Y94.1272
G1 Y88.7728
G1 F300.0 X107.95
G1 F1200.0 Y65.8757
G2 X106.85 Y64.7757 I-1.1 J0.0
G1 X101.85
G2 X100.75 Y65.8757 I0.0 J1.1
G1 Y177.8757
G2 X101.85 Y178.9757 I1.1 J0.0
G1 X106.85
G2 X107.95 Y177.8757 I0.0 J-1.1
G1 Y156.1272
G1 Y150.7728
G1 Y94.1272
G1 Y88.7728
G1 F300.0 X109.15
G1 F1200.0 Y65.8757
G2 X106.85 Y63.5757 I-2.3 J0.0
G1 X101.85
G2 X99.55 Y65.8757 I0.0 J2.3
G1 Y177.8757
G2 X101.85 Y180.1757 I2.3 J0.0
G1 X106.85
G2 X109.15 Y177.8757 I0.0 J-2.3
G1 Y156.1272
G1 Y150.7728
G1 Y94.1272
G1 Y88.7728
G1 F300.0 X110.35
G1 F1200.0 Y65.8757
G2 X106.85 Y62.3757 I-3.5 J0.0
G1 X101.85
G2 X98.35 Y65.8757 I0.0 J3.5
G1 Y177.8757
G2 X101.85 Y181.3757 I3.5 J0.0
G1 X106.85
G2 X110.35 Y177.8757 I0.0 J-3.5
G1 Y156.1272
G1 Y150.7728
G1 Y94.1272
G1 Y88.7728
G0 Z3.0
G0 X104.35 Y175.3757
G0 Z0.0
G1 F300.0 Z-1.0
G1 F1200.0 Y156.1272 Z-1.1511
G1 Y150.7728 Z-1.1931
G1 Y94.1272 Z-1.6378
G1 Y88.7728 Z-1.6798
G1 Y68.3757 Z-1.8399
G1 Y88.7728 Z-2.0
G1 Y68.3757
G1 Y88.7728
G1 Y94.1272
G1 Y150.7728
G1 Y156.1272
G1 Y175.3757
G0 Z3.0
G0 X105.55 Y88.7728
G0 Z0.0
G1 F300.0 Z-1.0
G1 F1200.0 Y67.1757 Z-1.0966
G1 X103.15 Z-1.1073
G1 Y176.5757 Z-1.5966
G1 X105.55 Z-1.6073
G1 Y156.1272 Z-1.6988
G1 Y150.7728 Z-1.7227
G1 Y94.1272 Z-1.9761
G1 Y88.7728 Z-2.0
G1 F300.0 X106.75
G1 F1200.0 Y65.9757
G1 X101.95
G1 Y177.7757
G1 X106.75
G1 Y156.1272
G1 Y150.7728
G1 Y94.1272
G1 Y88.7728
G1 F300.0 X107.95
G1 F1200.0 Y65.8757
G2 X106.85 Y64.7757 I-1.1 J0.0
G1 X101.85
G2 X100.75 Y65.8757 I0.0 J1.1
G1 Y177.8757
G2 X101.85 Y178.9757 I1.1 J0.0
G1 X106.85
G2 X107.95 Y177.8757 I0.0 J-1.1
G1 Y156.1272
G1 Y150.7728
G1 Y94.1272
G1 Y88.7728
G1 F300.0 X109.15
G1 F1200.0 Y65.8757
G2 X106.85 Y63.5757 I-2.3 J0.0
G1 X101.85
G2 X99.55 Y65.8757 I0.0 J2.3
G1 Y177.8757
G2 X101.85 Y180.1757 I2.3 J0.0
G1 X106.85
G2 X109.15 Y177.8757 I0.0 J-2.3
G1 Y156.1272
G1 Y150.7728
G1 Y94.1272
G1 Y88.7728
G1 F300.0 X110.35
G1 F1200.0 Y65.8757
G2 X106.85 Y62.3757 I-3.5 J0.0
G1 X101.85
G2 X98.35 Y65.8757 I0.0 J3.5
G1 Y177.8757
G2 X101.85 Y181.3757 I3.5 J0.0
G1 X106.85
G2 X110.35 Y177.8757 I0.0 J-3.5
G1 Y156.1272
G1 Y150.7728
G1 Y94.1272
G1 Y88.7728
G0 Z3.0
G0 X104.35 Y175.3757
G0 Z-1.0
G1 F300.0 Z-2.0
G1 F1200.0 Y156.1272 Z-2.1511
G1 Y150.7728 Z-2.1931
G1 Y94.1272 Z-2.6378
G1 Y88.7728 Z-2.6798
G1 Y68.3757 Z-2.8399
G1 Y88.7728 Z-3.0
G1 Y68.3757
G1 Y88.7728
G1 Y94.1272
G1 Y150.7728
G1 Y156.1272
G1 Y175.3757
G0 Z3.0
G0 X105.55 Y88.7728
G0 Z-1.0
G1 F300.0 Z-2.0
G1 F1200.0 Y67.1757 Z-2.0966
G1 X103.15 Z-2.1073
G1 Y176.5757 Z-2.5966
G1 X105.55 Z-2.6073
G1 Y156.1272 Z-2.6988
G1 Y150.7728 Z-2.7227
G1 Y94.1272 Z-2.9761
G1 Y88.7728 Z-3.0
G1 Y67.1757
G1 X103.15
G1 Y176.5757
G1 X105.55
G1 Y156.1272
G1 Y150.7728
G1 Y94.1272
G1 Y88.7728
G1 F300.0 X106.75
G1 F1200.0 Y65.9757
G1 X101.95
G1 Y177.7757
G1 X106.75
G1 Y156.1272
G1 Y150.7728
G1 Y94.1272
G1 Y88.7728
G1 F300.0 X107.95
G1 F1200.0 Y65.8757
G2 X106.85 Y64.7757 I-1.1 J0.0
G1 X101.85
G2 X100.75 Y65.8757 I0.0 J1.1
G1 Y177.8757
G2 X101.85 Y178.9757 I1.1 J0.0
G1 X106.85
G2 X107.95 Y177.8757 I0.0 J-1.1
G1 Y156.1272
G1 Y150.7728
G1 Y94.1272
G1 Y88.7728
G1 F300.0 X109.15
G1 F1200.0 Y65.8757
G2 X106.85 Y63.5757 I-2.3 J0.0
G1 X101.85
G2 X99.55 Y65.8757 I0.0 J2.3
G1 Y177.8757
G2 X101.85 Y180.1757 I2.3 J0.0
G1 X106.85
G2 X109.15 Y177.8757 I0.0 J-2.3
G1 Y156.1272
G1 Y150.7728
G1 Y94.1272
G1 Y88.7728
G1 F300.0 X110.35
G1 F1200.0 Y65.8757
G2 X106.85 Y62.3757 I-3.5 J0.0
G1 X101.85
G2 X98.35 Y65.8757 I0.0 J3.5
G1 Y177.8757
G2 X101.85 Y181.3757 I3.5 J0.0
G1 X106.85
G2 X110.35 Y177.8757 I0.0 J-3.5
G1 Y156.1272
G1 Y150.7728
G1 Y94.1272
G1 Y88.7728
( Poche3 )
S1000
G0 Z3.0
G0 X25.6464 Y189.2293
G0 Z1.0
G1 F300.0 Z0.0
G3 F1200.0 X25.0 Y189.3757 Z-0.181 I-0.6464 J-1.3536
G2 X24.75 Y189.4427 Z-0.2519 I0.0 J0.5
G2 Y190.3087 Z-0.5354 I0.25 J0.433
G2 X25.5 Y189.8757 Z-0.819 I0.25 J-0.433
G3 X25.6464 Y189.2293 Z-1.0 I1.5 J0.0
G0 Z3.0
G0 X74.5 Y140.3757
G0 Z1.0
G1 F300.0 Z0.0
G1 F1200.0 X75.35 Z-0.0102
G1 Y99.4157 Z-0.5
G1 X74.5 Z-0.5102
G1 Y140.3757 Z-1.0
G1 F300.0 X73.3
G1 F1200.0 Y141.5757
G1 X76.55
G1 Y98.2157
G1 X74.0
G3 X73.3 Y98.2106 I0.0 J-48.3
G1 Y140.3757
G1 F300.0 X72.1
G1 F1200.0 Y142.7757
G1 X77.75
G1 Y97.0157
G1 X74.0
G3 X72.1 Y96.9774 I0.0 J-47.1
G1 Y140.3757
G1 F300.0 X70.9
G1 F1200.0 Y143.9757
G1 X78.95
G1 Y95.8157
G1 X74.0
G3 X70.9 Y95.7109 I0.0 J-45.9
G1 Y140.3757
G1 F300.0 X69.7
G1 F1200.0 Y145.1757
G1 X80.15
G1 Y94.6157
G1 X74.0
G3 X69.7 Y94.4084 I0.0 J-44.7
G1 Y140.3757
G1 F300.0 X68.5
G1 F1200.0 Y146.3757
G1 X81.35
G1 Y93.4157
G1 X74.0
G3 X68.5 Y93.0666 I0.0 J-43.5
G1 Y140.3757
G1 F300.0 X67.3
G1 F1200.0 Y147.5757
G1 X82.55
G1 Y92.2157
G1 X74.0
G3 X67.3 Y91.6817 I0.0 J-42.3
G1 Y140.3757
G1 F300.0 X66.1
G1 F1200.0 Y148.7757
G1 X83.75
G1 Y91.0157
G1 X74.0
G3 X66.1 Y90.2493 I0.0 J-41.1
G1 Y140.3757
G1 F300.0 X64.9
G1 F1200.0 Y149.9757
G1 X84.95
G1 Y89.8157
G1 X74.0
G3 X64.9 Y88.7641 I0.0 J-39.9
G1 Y140.3757
G1 F300.0 X63.7
G1 F1200.0 Y151.1757
G1 X86.15
G1 Y88.6157
G1 X74.0
G3 X63.7 Y87.2199 I0.0 J-38.7
G1 Y140.3757
G1 F300.0 X62.5
G1 F1200.0 Y152.3757
G1 X87.35
G1 Y87.4157
G1 X74.0
G3 X62.5 Y85.6088 I0.0 J-37.5
G1 Y140.3757
G1 F300.0 X61.3
G1 F1200.0 Y153.5757
G1 X88.55
G1 Y86.2157
G1 X74.0
G3 X61.3 Y83.9216 I0.0 J-36.3
G1 Y140.3757
G1 F300.0 X60.1
G1 F1200.0 Y154.7757
G1 X89.75
G1 Y85.0157
G1 X74.0
G3 X60.1 Y82.1461 I0.0 J-35.1
G1 Y140.3757
G1 F300.0 X58.9
G1 F1200.0 Y155.9757
G1 X90.95
G1 Y83.8157
G1 X74.0
G3 X58.9 Y80.267 I0.0 J-33.9
G1 Y140.3757
G1 F300.0 X57.7
G1 F1200.0 Y157.1757
G1 X92.15
G1 Y82.6157
G1 X74.0
G3 X57.7 Y78.2635 I0.0 J-32.7
G1 Y140.3757
G1 F300.0 X56.5
G1 F1200.0 Y158.3757
G1 X93.35
G1 Y81.4157
G1 X74.0
G3 X56.5 Y76.1073 I0.0 J-31.5
G1 Y140.3757
G1 F300.0 X55.3
G1 F1200.0 Y159.5757
G1 X94.55
G1 Y80.2157
G1 X74.0
G3 X55.3 Y73.7568 I0.0 J-30.3
G1 Y140.3757
G1 F300.0 X54.1
G1 F1200.0 Y160.7757
G1 X95.75
G1 Y79.0157
G1 X74.0
G3 X54.1 Y71.1477 I0.0 J-29.1
G1 Y140.3757
G1 F300.0 X52.9
G1 F1200.0 Y161.9757
G1 X96.95
G1 Y77.8157
G1 X74.0
G3 X52.9 Y68.1695 I0.0 J-27.9
G1 Y140.3757
G1 F300.0 X51.7
G1 F1200.0 Y163.1757
G1 X98.15
G1 Y76.6157
G1 X74.0
G3 X51.7 Y64.599 I0.0 J-26.7
G1 Y140.3757
G1 F300.0 X50.5
G1 F1200.0 Y164.3757
G1 X99.35
G1 Y75.4157
G1 X74.0
G3 X50.5178 Y59.8572 I0.0 J-25.5
G3 X50.5 Y59.8995 I-23.5178 J-9.8572
G1 Y140.3757
G1 F300.0 X49.3
G1 F1200.0 Y165.5757
G1 X100.55
G1 Y74.2157
G1 X74.0
G3 X50.5111 Y56.1415 I0.0 J-24.3
G3 X49.3 Y59.654 I-23.5111 J-6.1415
G1 Y140.3757
G1 F300.0 X48.1
G1 F1200.0 Y166.7757
G1 X101.75
G1 Y73.0157
G1 X74.0
G3 X50.9 Y49.9157 I0.0 J-23.1
G1 Y48.0288
G1 X50.1
G1 Y50.0
G3 X48.1 Y59.4021 I-23.1 J0.0
G1 Y140.3757
G1 F300.0 X46.9
G1 F1200.0 Y167.9757
G1 X102.95
G1 Y71.8157
G1 X74.0
G3 X52.1 Y49.9157 I0.0 J-21.9
G1 Y46.8288
G1 X48.9
G1 Y50.0
G3 X46.9 Y59.1433 I-21.9 J0.0
G1 Y140.3757
G1 F300.0 X45.7
G1 F1200.0 Y169.1757
G1 X104.15
G1 Y70.6157
G1 X74.0
G3 X53.3 Y49.9157 I0.0 J-20.7
G1 Y45.6288
G1 X47.7
G1 Y50.0
G3 X45.7 Y58.8769 I-20.7 J0.0
G1 Y140.3757
G1 F300.0 X44.5
G1 F1200.0 Y170.3757
G1 X105.35
G1 Y69.4157
G1 X74.0
G3 X54.5 Y49.9157 I0.0 J-19.5
G1 Y44.4288
G1 X46.5
G1 Y50.0
G3 X44.5 Y58.6023 I-19.5 J0.0
G1 Y140.3757
G1 F300.0 X43.3
G1 F1200.0 Y171.5757
G1 X106.55
G1 Y68.2157
G1 X74.0
G3 X55.7 Y49.9157 I0.0 J-18.3
G1 Y43.2288
G1 X45.3
G1 Y50.0
G3 X43.3 Y58.3187 I-18.3 J0.0
G1 Y140.3757
G1 F300.0 X42.1
G1 F1200.0 Y172.7757
G1 X107.75
G1 Y67.0157
G1 X74.0
G3 X56.9 Y49.9157 I0.0 J-17.1
G1 Y42.0288
G1 X44.1
G1 Y50.0
G3 X42.1 Y58.025 I-17.1 J0.0
G1 Y140.3757
G1 F300.0 X40.9
G1 F1200.0 Y173.9757
G1 X108.95
G1 Y65.8157
G1 X74.0
G3 X58.1 Y49.9157 I0.0 J-15.9
G1 Y40.8288
G1 X42.9
G1 Y50.0
G3 X40.9 Y57.7201 I-15.9 J0.0
G1 Y140.3757
G1 F300.0 X39.7
G1 F1200.0 Y175.1757
G1 X110.15
G1 Y64.6157
G1 X74.0
G3 X59.3 Y49.9157 I0.0 J-14.7
G1 Y39.6288
G1 X41.7
G1 Y50.0
G3 X39.7 Y57.4027 I-14.7 J0.0
G1 Y140.3757
G1 F300.0 X38.5
G1 F1200.0 Y176.3757
G1 X111.35
G1 Y63.4157
G1 X74.0
G3 X60.5 Y49.9157 I0.0 J-13.5
G1 Y38.4288
G1 X40.5
G1 Y50.0
G3 X38.5 Y57.0711 I-13.5 J0.0
G1 Y140.3757
G1 F300.0 X37.3
G1 F1200.0 Y177.5757
G1 X112.55
G1 Y62.2157
G1 X74.0
G3 X61.7 Y49.9157 I0.0 J-12.3
G1 Y37.2288
G1 X39.3
G1 Y50.0
G3 X37.3 Y56.7231 I-12.3 J0.0
G1 Y140.3757
G1 F300.0 X36.1
G1 F1200.0 Y178.7757
G1 X113.75
G1 Y61.0157
G1 X74.0
G3 X62.9 Y49.9157 I0.0 J-11.1
G1 Y36.0288
G1 X38.1
G1 Y50.0
G3 X36.1 Y56.3561 I-11.1 J0.0
G1 Y140.3757
G1 F300.0 X34.9
G1 F1200.0 Y179.9757
G1 X114.95
G1 Y59.8157
G1 X74.0
G3 X64.1 Y49.9157 I0.0 J-9.9
G1 Y34.8288
G1 X36.9
G1 Y50.0
G3 X34.9 Y55.9666 I-9.9 J0.0
G1 Y140.3757
G1 F300.0 X33.7
G1 F1200.0 Y181.1757
G1 X116.15
G1 Y58.6157
G1 X74.0
G3 X65.3 Y49.9157 I0.0 J-8.7
G1 Y33.6288
G1 X35.7
G1 Y50.0
G3 X33.7 Y55.5498 I-8.7 J0.0
G1 Y140.3757
G1 F300.0 X32.5
G1 F1200.0 Y182.3757
G1 X117.35
G1 Y57.4157
G1 X74.0
G3 X66.5 Y49.9157 I0.0 J-7.5
G1 Y32.4288
G1 X34.5
G1 Y50.0
G3 X32.5 Y55.099 I-7.5 J0.0
G1 Y140.3757
G1 F300.0 X31.3
G1 F1200.0 Y183.5757
G1 X118.55
G1 Y56.2157
G1 X74.0
G3 X67.7 Y49.9157 I0.0 J-6.3
G1 Y31.2288
G1 X33.3
G1 Y50.0
G3 X31.3 Y54.6043 I-6.3 J0.0
G1 Y140.3757
G1 F300.0 X30.1
G1 F1200.0 Y184.7757
G1 X119.75
G1 Y55.0157
G1 X74.0
G3 X68.9 Y49.9157 I0.0 J-5.1
G1 Y30.0288
G1 X32.1
G1 Y50.0
G3 X30.1 Y54.0497 I-5.1 J0.0
G1 Y140.3757
G1 F300.0 X28.9
G1 F1200.0 Y185.9757
G1 X120.95
G1 Y53.8157
G1 X74.0
G3 X70.1 Y49.9157 I0.0 J-3.9
G1 Y28.8288
G1 X30.9
G1 Y50.0
G3 X28.858 Y53.429 I-3.9 J0.0
G3 X28.9 Y54.0 I-3.858 J0.571
G1 Y140.3757
G1 F300.0 X27.7
G1 F1200.0 Y187.1757
G1 X122.15
G1 Y52.6157
G1 X74.0
G3 X71.3 Y49.9157 I0.0 J-2.7
G1 Y27.6288
G1 X29.7
G1 Y50.0
G3 X27.3535 Y52.6768 I-2.7 J0.0
G3 X27.7 Y54.0 I-2.3535 J1.3232
G1 Y140.3757
G1 F300.0 X26.5
G1 F1200.0 Y187.8757
G3 X26.3536 Y188.5221 I-1.5 J0.0
G3 X27.0 Y188.3757 I0.6464 J1.3536
G1 X122.85
G3 X123.4964 Y188.5221 I0.0 J1.5
G3 X123.35 Y187.8757 I1.3536 J-0.6464
G1 Y51.9157
G3 X123.4964 Y51.2693 I1.5 J0.0
G3 X122.85 Y51.4157 I-0.6464 J-1.3536
G1 X74.0
G3 X72.5 Y49.9157 I0.0 J-1.5
G1 Y26.4288
G1 X28.5
G1 Y50.0
G3 X27.0 Y51.5 I-1.5 J0.0
G1 X25.0
G2 X24.75 Y51.567 I0.0 J0.5
G2 Y52.433 I0.25 J0.433
G2 X25.0 Y52.5 I0.25 J-0.433
G3 X26.5 Y54.0 I0.0 J1.5
G1 Y140.3757
G0 Z3.0
G0 X25.6464 Y189.2293
G0 Z0.0
G1 F300.0 Z-1.0
G3 F1200.0 X25.0 Y189.3757 Z-1.1122 I-0.6464 J-1.3536
G2 X24.75 Y189.4427 Z-1.1562 I0.0 J0.5
G2 Y190.3087 Z-1.332 I0.25 J0.433
G2 X25.5 Y189.8757 Z-1.5078 I0.25 J-0.433
G3 X25.6464 Y189.2293 Z-1.62 I1.5 J0.0
G3 X25.0 Y189.3757 I-0.6464 J-1.3536
G2 X24.75 Y189.4427 I0.0 J0.5
G2 Y190.3087 I0.25 J0.433
G2 X25.5 Y189.8757 I0.25 J-0.433
G3 X25.6464 Y189.2293 I1.5 J0.0
G0 Z3.0
G0 X124.2036
G0 Z1.0
G1 F300.0 Z0.0
G3 F1200.0 X124.35 Y189.8757 Z-0.181 I-1.3536 J0.6464
G2 X124.6 Y190.3087 Z-0.3228 I0.5 J0.0
G2 X125.35 Y189.8757 Z-0.6063 I0.25 J-0.433
G2 X124.85 Y189.3757 Z-0.819 I-0.5 J0.0
G3 X124.2036 Y189.2293 Z-1.0 I0.0 J-1.5
G3 X124.35 Y189.8757 Z-1.1122 I-1.3536 J0.6464
G2 X124.6 Y190.3087 Z-1.2001 I0.5 J0.0
G2 X125.35 Y189.8757 Z-1.3759 I0.25 J-0.433
G2 X124.85 Y189.3757 Z-1.5078 I-0.5 J0.0
G3 X124.2036 Y189.2293 Z-1.62 I0.0 J-1.5
G3 X124.35 Y189.8757 I-1.3536 J0.6464
G2 X124.6 Y190.3087 I0.5 J0.0
G2 X125.35 Y189.8757 I0.25 J-0.433
G2 X124.85 Y189.3757 I-0.5 J0.0
G3 X124.2036 Y189.2293 I0.0 J-1.5
G0 Z3.0
G0 Y50.5621
G0 Z1.0
G1 F300.0 Z0.0
G3 F1200.0 X124.85 Y50.4157 Z-0.181 I0.6464 J1.3536
G2 X125.35 Y49.9157 Z-0.3937 I0.0 J-0.5
G2 X124.6 Y49.4827 Z-0.6772 I-0.5 J0.0
G2 X124.35 Y49.9157 Z-0.819 I0.25 J0.433
G3 X124.2036 Y50.5621 Z-1.0 I-1.5 J0.0
G3 X124.85 Y50.4157 Z-1.1122 I0.6464 J1.3536
G2 X125.35 Y49.9157 Z-1.2441 I0.0 J-0.5
G2 X124.6 Y49.4827 Z-1.4199 I-0.5 J0.0
G2 X124.35 Y49.9157 Z-1.5078 I0.25 J0.433
G3 X124.2036 Y50.5621 Z-1.62 I-1.5 J0.0
G3 X124.85 Y50.4157 I0.6464 J1.3536
G2 X125.35 Y49.9157 I0.0 J-0.5
G2 X124.6 Y49.4827 I-0.5 J0.0
G2 X124.35 Y49.9157 I0.25 J0.433
G3 X124.2036 Y50.5621 I-1.5 J0.0
G0 Z3.0
G0 X75.35 Y99.4157
G0 Z0.0
G1 F300.0 Z-1.0
G1 F1200.0 X74.5 Z-1.0063
G1 Y140.3757 Z-1.31
G1 X75.35 Z-1.3163
G1 Y99.4157 Z-1.62
G1 X74.5
G1 Y140.3757
G1 X75.35
G1 Y99.4157
G0 Z-1.0
G1 F300.0 Y98.2157
G1 F1200.0 X74.0 Z-1.009
G3 X73.3 Y98.2106 Z-1.0136 I0.0 J-48.3
G1 Y141.5757 Z-1.302
G1 X76.55 Z-1.3237
G1 Y98.2157 Z-1.612
G1 X75.35 Z-1.62
G1 X74.0
G3 X73.3 Y98.2106 I0.0 J-48.3
G1 Y141.5757
G1 X76.55
G1 Y98.2157
G1 X75.35
G0 Z-1.0
G1 F300.0 Y97.0157
G1 F1200.0 X74.0 Z-1.0081
G3 X72.1 Y96.9774 Z-1.0196 I0.0 J-47.1
G1 Y142.7757 Z-1.2957
G1 X77.75 Z-1.3297
G1 Y97.0157 Z-1.6055
G1 X75.35 Z-1.62
G1 X74.0
G3 X72.1 Y96.9774 I0.0 J-47.1
G1 Y142.7757
G1 X77.75
G1 Y97.0157
G1 X75.35
G0 Z-1.0
G1 F300.0 Y95.8157
G1 F1200.0 X74.0 Z-1.0074
G3 X70.9 Y95.7109 Z-1.0245 I0.0 J-45.9
G1 Y143.9757 Z-1.2905
G1 X78.95 Z-1.3348
G1 Y95.8157 Z-1.6002
G1 X75.35 Z-1.62
G1 X74.0
G3 X70.9 Y95.7109 I0.0 J-45.9
G1 Y143.9757
G1 X78.95
G1 Y95.8157
G1 X75.35
G0 Z-1.0
G1 F300.0 Y94.6157
G1 F1200.0 X74.0 Z-1.0068
G3 X69.7 Y94.4084 Z-1.0287 I0.0 J-44.7
G1 Y145.1757 Z-1.2862
G1 X80.15 Z-1.3392
G1 Y94.6157 Z-1.5957
G1 X75.35 Z-1.62
G1 X74.0
G3 X69.7 Y94.4084 I0.0 J-44.7
G1 Y145.1757
G1 X80.15
G1 Y94.6157
G1 X75.35
G0 Z-1.0
G1 F300.0 Y93.4157
G1 F1200.0 X74.0 Z-1.0063
G3 X68.5 Y93.0666 Z-1.0322 I0.0 J-43.5
G1 Y146.3757 Z-1.2827
G1 X81.35 Z-1.343
G1 Y93.4157 Z-1.5918
G1 X75.35 Z-1.62
G1 X74.0
G3 X68.5 Y93.0666 I0.0 J-43.5
G1 Y146.3757
G1 X81.35
G1 Y93.4157
G1 X75.35
G0 Z-1.0
G1 F300.0 Y92.2157
G1 F1200.0 X74.0 Z-1.0059
G3 X67.3 Y91.6817 Z-1.0353 I0.0 J-42.3
G1 Y147.5757 Z-1.2797
G1 X82.55 Z-1.3464
G1 Y92.2157 Z-1.5885
G1 X75.35 Z-1.62
G1 X74.0
G3 X67.3 Y91.6817 I0.0 J-42.3
G1 Y147.5757
G1 X82.55
G1 Y92.2157
G1 X75.35
G0 Z-1.0
G1 F300.0 Y91.0157
G1 F1200.0 X74.0 Z-1.0055
G3 X66.1 Y90.2493 Z-1.038 I0.0 J-41.1
G1 Y148.7757 Z-1.2773
G1 X83.75 Z-1.3495
G1 Y91.0157 Z-1.5857
G1 X75.35 Z-1.62
G1 X74.0
G3 X66.1 Y90.2493 I0.0 J-41.1
G1 Y148.7757
G1 X83.75
G1 Y91.0157
G1 X75.35
G0 Z-1.0
G1 F300.0 Y89.8157
G1 F1200.0 X74.0 Z-1.0052
G3 X64.9 Y88.7641 Z-1.0404 I0.0 J-39.9
G1 Y149.9757 Z-1.2753
G1 X84.95 Z-1.3523
G1 Y89.8157 Z-1.5832
G1 X75.35 Z-1.62
G1 X74.0
G3 X64.9 Y88.7641 I0.0 J-39.9
G1 Y149.9757
G1 X84.95
G1 Y89.8157
G1 X75.35
G0 Z-1.0
G1 F300.0 Y88.6157
G1 F1200.0 X74.0 Z-1.0049
G3 X63.7 Y87.2199 Z-1.0426 I0.0 J-38.7
G1 Y151.1757 Z-1.2737
G1 X86.15 Z-1.3549
G1 Y88.6157 Z-1.581
G1 X75.35 Z-1.62
G1 X74.0
G3 X63.7 Y87.2199 I0.0 J-38.7
G1 Y151.1757
G1 X86.15
G1 Y88.6157
G1 X75.35
G0 Z-1.0
G1 F300.0 Y87.4157
G1 F1200.0 X74.0 Z-1.0046
G3 X62.5 Y85.6088 Z-1.0445 I0.0 J-37.5
G1 Y152.3757 Z-1.2724
G1 X87.35 Z-1.3573
G1 Y87.4157 Z-1.579
G1 X75.35 Z-1.62
G1 X74.0
G3 X62.5 Y85.6088 I0.0 J-37.5
G1 Y152.3757
G1 X87.35
G1 Y87.4157
G1 X75.35
G0 Z-1.0
G1 F300.0 Y86.2157
G1 F1200.0 X74.0 Z-1.0044
G3 X61.3 Y83.9216 Z-1.0463 I0.0 J-36.3
G1 Y153.5757 Z-1.2715
G1 X88.55 Z-1.3596
G1 Y86.2157 Z-1.5773
G1 X75.35 Z-1.62
G1 X74.0
G3 X61.3 Y83.9216 I0.0 J-36.3
G1 Y153.5757
G1 X88.55
G1 Y86.2157
G1 X75.35
G0 Z-1.0
G1 F300.0 Y85.0157
G1 F1200.0 X74.0 Z-1.0041
G3 X60.1 Y82.1461 Z-1.048 I0.0 J-35.1
G1 Y154.7757 Z-1.2708
G1 X89.75 Z-1.3618
G1 Y85.0157 Z-1.5758
G1 X75.35 Z-1.62
G1 X74.0
G3 X60.1 Y82.1461 I0.0 J-35.1
G1 Y154.7757
G1 X89.75
G1 Y85.0157
G1 X75.35
G0 Z-1.0
G1 F300.0 Y83.8157
G1 F1200.0 X74.0 Z-1.0039
G3 X58.9 Y80.267 Z-1.0496 I0.0 J-33.9
G1 Y155.9757 Z-1.2705
G1 X90.95 Z-1.364
G1 Y83.8157 Z-1.5745
G1 X75.35 Z-1.62
G1 X74.0
G3 X58.9 Y80.267 I0.0 J-33.9
G1 Y155.9757
G1 X90.95
G1 Y83.8157
G1 X75.35
G0 Z-1.0
G1 F300.0 Y82.6157
G1 F1200.0 X74.0 Z-1.0038
G3 X57.7 Y78.2635 Z-1.0512 I0.0 J-32.7
G1 Y157.1757 Z-1.2704
G1 X92.15 Z-1.3661
G1 Y82.6157 Z-1.5733
G1 X75.35 Z-1.62
G1 X74.0
G3 X57.7 Y78.2635 I0.0 J-32.7
G1 Y157.1757
G1 X92.15
G1 Y82.6157
G1 X75.35
G0 Z-1.0
G1 F300.0 Y81.4157
G1 F1200.0 X74.0 Z-1.0036
G3 X56.5 Y76.1073 Z-1.0527 I0.0 J-31.5
G1 Y158.3757 Z-1.2707
G1 X93.35 Z-1.3684
G1 Y81.4157 Z-1.5723
G1 X75.35 Z-1.62
G1 X74.0
G3 X56.5 Y76.1073 I0.0 J-31.5
G1 Y158.3757
G1 X93.35
G1 Y81.4157
G1 X75.35
G0 Z-1.0
G1 F300.0 Y80.2157
G1 F1200.0 X74.0 Z-1.0034
G3 X55.3 Y73.7568 Z-1.0544 I0.0 J-30.3
G1 Y159.5757 Z-1.2714
G1 X94.55 Z-1.3707
G1 Y80.2157 Z-1.5714
G1 X75.35 Z-1.62
G1 X74.0
G3 X55.3 Y73.7568 I0.0 J-30.3
G1 Y159.5757
G1 X94.55
G1 Y80.2157
G1 X75.35
G0 Z-1.0
G1 F300.0 Y79.0157
G1 F1200.0 X74.0 Z-1.0033
G3 X54.1 Y71.1477 Z-1.0562 I0.0 J-29.1
G1 Y160.7757 Z-1.2727
G1 X95.75 Z-1.3733
G1 Y79.0157 Z-1.5707
G1 X75.35 Z-1.62
G1 X74.0
G3 X54.1 Y71.1477 I0.0 J-29.1
G1 Y160.7757
G1 X95.75
G1 Y79.0157
G1 X75.35
G0 Z-1.0
G1 F300.0 Y77.8157
G1 F1200.0 X74.0 Z-1.0031
G3 X52.9 Y68.1695 Z-1.0583 I0.0 J-27.9
G1 Y161.9757 Z-1.2746
G1 X96.95 Z-1.3761
G1 Y77.8157 Z-1.5702
G1 X75.35 Z-1.62
G1 X74.0
G3 X52.9 Y68.1695 I0.0 J-27.9
G1 Y161.9757
G1 X96.95
G1 Y77.8157
G1 X75.35
G0 Z-1.0
G1 F300.0 Y76.6157
G1 F1200.0 X74.0 Z-1.003
G3 X51.7 Y64.599 Z-1.061 I0.0 J-26.7
G1 Y163.1757 Z-1.2776
G1 X98.15 Z-1.3797
G1 Y76.6157 Z-1.5699
G1 X75.35 Z-1.62
G1 X74.0
G3 X51.7 Y64.599 I0.0 J-26.7
G1 Y163.1757
G1 X98.15
G1 Y76.6157
G1 X75.35
G0 Z-1.0
G1 F300.0 Y75.4157
G1 F1200.0 X74.0 Z-1.0028
G3 X50.5178 Y59.8572 Z-1.065 I0.0 J-25.5
G3 X50.5 Y59.8995 Z-1.0651 I-23.5178 J-9.8572
G1 Y164.3757 Z-1.2828
G1 X99.35 Z-1.3846
G1 Y75.4157 Z-1.57
G1 X75.35 Z-1.62
G1 X74.0
G3 X50.5178 Y59.8572 I0.0 J-25.5
G3 X50.5 Y59.8995 I-23.5178 J-9.8572
G1 Y164.3757
G1 X99.35
G1 Y75.4157
G1 X75.35
G0 Z-1.0
G1 F300.0 Y74.2157
G1 F1200.0 X74.0 Z-1.0027
G3 X50.5111 Y56.1415 Z-1.0663 I0.0 J-24.3
G3 X49.3 Y59.654 Z-1.0737 I-23.5111 J-6.1415
G1 Y165.5757 Z-1.2851
G1 X100.55 Z-1.3874
G1 Y74.2157 Z-1.5697
G1 X75.35 Z-1.62
G1 X74.0
G3 X50.5111 Y56.1415 I0.0 J-24.3
G3 X49.3 Y59.654 I-23.5111 J-6.1415
G1 Y165.5757
G1 X100.55
G1 Y74.2157
G1 X75.35
G0 Z-1.0
G1 F300.0 Y73.0157
G1 F1200.0 X74.0 Z-1.0025
G3 X50.9 Y49.9157 Z-1.07 I0.0 J-23.1
G1 Y48.0288 Z-1.0735
G1 X50.1 Z-1.075
G1 Y50.0 Z-1.0787
G3 X48.1 Y59.4021 Z-1.0967 I-23.1 J0.0
G1 Y166.7757 Z-1.2965
G1 X101.75 Z-1.3964
G1 Y73.0157 Z-1.5709
G1 X75.35 Z-1.62
G1 X74.0
G3 X50.9 Y49.9157 I0.0 J-23.1
G1 Y48.0288
G1 X50.1
G1 Y50.0
G3 X48.1 Y59.4021 I-23.1 J0.0
G1 Y166.7757
G1 X101.75
G1 Y73.0157
G1 X75.35
G0 Z-1.0
G1 F300.0 Y71.8157
G1 F1200.0 X74.0 Z-1.0024
G3 X52.1 Y49.9157 Z-1.0646 I0.0 J-21.9
G1 Y46.8288 Z-1.0701
G1 X48.9 Z-1.0759
G1 Y50.0 Z-1.0817
G3 X46.9 Y59.1433 Z-1.0987 I-21.9 J0.0
G1 Y167.9757 Z-1.2952
G1 X102.95 Z-1.3965
G1 Y71.8157 Z-1.5702
G1 X75.35 Z-1.62
G1 X74.0
G3 X52.1 Y49.9157 I0.0 J-21.9
G1 Y46.8288
G1 X48.9
G1 Y50.0
G3 X46.9 Y59.1433 I-21.9 J0.0
G1 Y167.9757
G1 X102.95
G1 Y71.8157
G1 X75.35
G0 Z-1.0
G1 F300.0 Y70.6157
G1 F1200.0 X74.0 Z-1.0024
G3 X53.3 Y49.9157 Z-1.0594 I0.0 J-20.7
G1 Y45.6288 Z-1.0669
G1 X47.7 Z-1.0768
G1 Y50.0 Z-1.0844
G3 X45.7 Y58.8769 Z-1.1005 I-20.7 J0.0
G1 Y169.1757 Z-1.294
G1 X104.15 Z-1.3966
G1 Y70.6157 Z-1.5695
G1 X75.35 Z-1.62
G1 X74.0
G3 X53.3 Y49.9157 I0.0 J-20.7
G1 Y45.6288
G1 X47.7
G1 Y50.0
G3 X45.7 Y58.8769 I-20.7 J0.0
G1 Y169.1757
G1 X104.15
G1 Y70.6157
G1 X75.35
G0 Z-1.0
G1 F300.0 Y69.4157
G1 F1200.0 X74.0 Z-1.0023
G3 X54.5 Y49.9157 Z-1.0545 I0.0 J-19.5
G1 Y44.4288 Z-1.0639
G1 X46.5 Z-1.0775
G1 Y50.0 Z-1.087
G3 X44.5 Y58.6023 Z-1.1022 I-19.5 J0.0
G1 Y170.3757 Z-1.2929
G1 X105.35 Z-1.3966
G1 Y69.4157 Z-1.5688
G1 X75.35 Z-1.62
G1 X74.0
G3 X54.5 Y49.9157 I0.0 J-19.5
G1 Y44.4288
G1 X46.5
G1 Y50.0
G3 X44.5 Y58.6023 I-19.5 J0.0
G1 Y170.3757
G1 X105.35
G1 Y69.4157
G1 X75.35
G0 Z-1.0
G1 F300.0 Y68.2157
G1 F1200.0 X74.0 Z-1.0022
G3 X55.7 Y49.9157 Z-1.0499 I0.0 J-18.3
G1 Y43.2288 Z-1.061
G1 X45.3 Z-1.0783
G1 Y50.0 Z-1.0895
G3 X43.3 Y58.3187 Z-1.1039 I-18.3 J0.0
G1 Y171.5757 Z-1.2918
G1 X106.55 Z-1.3967
G1 Y68.2157 Z-1.5682
G1 X75.35 Z-1.62
G1 X74.0
G3 X55.7 Y49.9157 I0.0 J-18.3
G1 Y43.2288
G1 X45.3
G1 Y50.0
G3 X43.3 Y58.3187 I-18.3 J0.0
G1 Y171.5757
G1 X106.55
G1 Y68.2157
G1 X75.35
G0 Z-1.0
G1 F300.0 Y67.0157
G1 F1200.0 X74.0 Z-1.0022
G3 X56.9 Y49.9157 Z-1.0456 I0.0 J-17.1
G1 Y42.0288 Z-1.0583
G1 X44.1 Z-1.079
G1 Y50.0 Z-1.0919
G3 X42.1 Y58.025 Z-1.1054 I-17.1 J0.0
G1 Y172.7757 Z-1.2907
G1 X107.75 Z-1.3968
G1 Y67.0157 Z-1.5677
G1 X75.35 Z-1.62
G1 X74.0
G3 X56.9 Y49.9157 I0.0 J-17.1
G1 Y42.0288
G1 X44.1
G1 Y50.0
G3 X42.1 Y58.025 I-17.1 J0.0
G1 Y172.7757
G1 X107.75
G1 Y67.0157
G1 X75.35
G0 Z-1.0
G1 F300.0 Y65.8157
G1 F1200.0 X74.0 Z-1.0021
G3 X58.1 Y49.9157 Z-1.0414 I0.0 J-15.9
G1 Y40.8288 Z-1.0557
G1 X42.9 Z-1.0797
G1 Y50.0 Z-1.0941
G3 X40.9 Y57.7201 Z-1.1068 I-15.9 J0.0
G1 Y173.9757 Z-1.2898
G1 X108.95 Z-1.3969
G1 Y65.8157 Z-1.5671
G1 X75.35 Z-1.62
G1 X74.0
G3 X58.1 Y49.9157 I0.0 J-15.9
G1 Y40.8288
G1 X42.9
G1 Y50.0
G3 X40.9 Y57.7201 I-15.9 J0.0
G1 Y173.9757
G1 X108.95
G1 Y65.8157
G1 X75.35
G0 Z-1.0
G1 F300.0 Y64.6157
G1 F1200.0 X74.0 Z-1.0021
G3 X59.3 Y49.9157 Z-1.0375 I0.0 J-14.7
G1 Y39.6288 Z-1.0533
G1 X41.7 Z-1.0803
G1 Y50.0 Z-1.0962
G3 X39.7 Y57.4027 Z-1.1081 I-14.7 J0.0
G1 Y175.1757 Z-1.2888
G1 X110.15 Z-1.3969
G1 Y64.6157 Z-1.5666
G1 X75.35 Z-1.62
G1 X74.0
G3 X59.3 Y49.9157 I0.0 J-14.7
G1 Y39.6288
G1 X41.7
G1 Y50.0
G3 X39.7 Y57.4027 I-14.7 J0.0
G1 Y175.1757
G1 X110.15
G1 Y64.6157
G1 X75.35
G0 Z-1.0
G1 F300.0 Y63.4157
G1 F1200.0 X74.0 Z-1.002
G3 X60.5 Y49.9157 Z-1.0338 I0.0 J-13.5
G1 Y38.4288 Z-1.051
G1 X40.5 Z-1.0809
G1 Y50.0 Z-1.0982
G3 X38.5 Y57.0711 Z-1.1094 I-13.5 J0.0
G1 Y176.3757 Z-1.288
G1 X111.35 Z-1.397
G1 Y63.4157 Z-1.5661
G1 X75.35 Z-1.62
G1 X74.0
G3 X60.5 Y49.9157 I0.0 J-13.5
G1 Y38.4288
G1 X40.5
G1 Y50.0
G3 X38.5 Y57.0711 I-13.5 J0.0
G1 Y176.3757
G1 X111.35
G1 Y63.4157
G1 X75.35
G0 Z-1.0
G1 F300.0 Y62.2157
G1 F1200.0 X74.0 Z-1.002
G3 X61.7 Y49.9157 Z-1.0302 I0.0 J-12.3
G1 Y37.2288 Z-1.0487
G1 X39.3 Z-1.0815
G1 Y50.0 Z-1.1001
G3 X37.3 Y56.7231 Z-1.1105 I-12.3 J0.0
G1 Y177.5757 Z-1.2871
G1 X112.55 Z-1.3971
G1 Y62.2157 Z-1.5656
G1 X75.35 Z-1.62
G1 X74.0
G3 X61.7 Y49.9157 I0.0 J-12.3
G1 Y37.2288
G1 X39.3
G1 Y50.0
G3 X37.3 Y56.7231 I-12.3 J0.0
G1 Y177.5757
G1 X112.55
G1 Y62.2157
G1 X75.35
G0 Z-1.0
G1 F300.0 Y61.0157
G1 F1200.0 X74.0 Z-1.0019
G3 X62.9 Y49.9157 Z-1.0268 I0.0 J-11.1
G1 Y36.0288 Z-1.0466
G1 X38.1 Z-1.082
G1 Y50.0 Z-1.102
G3 X36.1 Y56.3561 Z-1.1116 I-11.1 J0.0
G1 Y178.7757 Z-1.2863
G1 X113.75 Z-1.3971
G1 Y61.0157 Z-1.5652
G1 X75.35 Z-1.62
G1 X74.0
G3 X62.9 Y49.9157 I0.0 J-11.1
G1 Y36.0288
G1 X38.1
G1 Y50.0
G3 X36.1 Y56.3561 I-11.1 J0.0
G1 Y178.7757
G1 X113.75
G1 Y61.0157
G1 X75.35
G0 Z-1.0
G1 F300.0 Y59.8157
G1 F1200.0 X74.0 Z-1.0019
G3 X64.1 Y49.9157 Z-1.0236 I0.0 J-9.9
G1 Y34.8288 Z-1.0446
G1 X36.9 Z-1.0825
G1 Y50.0 Z-1.1037
G3 X34.9 Y55.9666 Z-1.1126 I-9.9 J0.0
G1 Y179.9757 Z-1.2856
G1 X114.95 Z-1.3972
G1 Y59.8157 Z-1.5648
G1 X75.35 Z-1.62
G1 X74.0
G3 X64.1 Y49.9157 I0.0 J-9.9
G1 Y34.8288
G1 X36.9
G1 Y50.0
G3 X34.9 Y55.9666 I-9.9 J0.0
G1 Y179.9757
G1 X114.95
G1 Y59.8157
G1 X75.35
G0 Z-1.0
G1 F300.0 Y58.6157
G1 F1200.0 X74.0 Z-1.0018
G3 X65.3 Y49.9157 Z-1.0205 I0.0 J-8.7
G1 Y33.6288 Z-1.0427
G1 X35.7 Z-1.083
G1 Y50.0 Z-1.1054
G3 X33.7 Y55.5498 Z-1.1136 I-8.7 J0.0
G1 Y181.1757 Z-1.2849
G1 X116.15 Z-1.3973
G1 Y58.6157 Z-1.5644
G1 X75.35 Z-1.62
G1 X74.0
G3 X65.3 Y49.9157 I0.0 J-8.7
G1 Y33.6288
G1 X35.7
G1 Y50.0
G3 X33.7 Y55.5498 I-8.7 J0.0
G1 Y181.1757
G1 X116.15
G1 Y58.6157
G1 X75.35
G0 Z-1.0
G1 F300.0 Y57.4157
G1 F1200.0 X74.0 Z-1.0018
G3 X66.5 Y49.9157 Z-1.0175 I0.0 J-7.5
G1 Y32.4288 Z-1.0408
G1 X34.5 Z-1.0835
G1 Y50.0 Z-1.1069
G3 X32.5 Y55.099 Z-1.1144 I-7.5 J0.0
G1 Y182.3757 Z-1.2842
G1 X117.35 Z-1.3973
G1 Y57.4157 Z-1.564
G1 X75.35 Z-1.62
G1 X74.0
G3 X66.5 Y49.9157 I0.0 J-7.5
G1 Y32.4288
G1 X34.5
G1 Y50.0
G3 X32.5 Y55.099 I-7.5 J0.0
G1 Y182.3757
G1 X117.35
G1 Y57.4157
G1 X75.35
G0 Z-1.0
G1 F300.0 Y56.2157
G1 F1200.0 X74.0 Z-1.0018
G3 X67.7 Y49.9157 Z-1.0147 I0.0 J-6.3
G1 Y31.2288 Z-1.0391
G1 X33.3 Z-1.084
G1 Y50.0 Z-1.1085
G3 X31.3 Y54.6043 Z-1.1152 I-6.3 J0.0
G1 Y183.5757 Z-1.2835
G1 X118.55 Z-1.3974
G1 Y56.2157 Z-1.5636
G1 X75.35 Z-1.62
G1 X74.0
G3 X67.7 Y49.9157 I0.0 J-6.3
G1 Y31.2288
G1 X33.3
G1 Y50.0
G3 X31.3 Y54.6043 I-6.3 J0.0
G1 Y183.5757
G1 X118.55
G1 Y56.2157
G1 X75.35
G0 Z-1.0
G1 F300.0 Y55.0157
G1 F1200.0 X74.0 Z-1.0017
G3 X68.9 Y49.9157 Z-1.012 I0.0 J-5.1
G1 Y30.0288 Z-1.0374
G1 X32.1 Z-1.0844
G1 Y50.0 Z-1.1099
G3 X30.1 Y54.0497 Z-1.1159 I-5.1 J0.0
G1 Y184.7757 Z-1.2829
G1 X119.75 Z-1.3975
G1 Y55.0157 Z-1.5633
G1 X75.35 Z-1.62
G1 X74.0
G3 X68.9 Y49.9157 I0.0 J-5.1
G1 Y30.0288
G1 X32.1
G1 Y50.0
G3 X30.1 Y54.0497 I-5.1 J0.0
G1 Y184.7757
G1 X119.75
G1 Y55.0157
G1 X75.35
G0 Z-1.0
G1 F300.0 Y53.8157
G1 F1200.0 X74.0 Z-1.0017
G3 X70.1 Y49.9157 Z-1.0094 I0.0 J-3.9
G1 Y28.8288 Z-1.0357
G1 X30.9 Z-1.0848
G1 Y50.0 Z-1.1113
G3 X28.858 Y53.429 Z-1.1165 I-3.9 J0.0
G3 X28.9 Y54.0 Z-1.1172 I-3.858 J0.571
G1 Y185.9757 Z-1.2824
G1 X120.95 Z-1.3976
G1 Y53.8157 Z-1.5629
G1 X75.35 Z-1.62
G1 X74.0
G3 X70.1 Y49.9157 I0.0 J-3.9
G1 Y28.8288
G1 X30.9
G1 Y50.0
G3 X28.858 Y53.429 I-3.9 J0.0
G3 X28.9 Y54.0 I-3.858 J0.571
G1 Y185.9757
G1 X120.95
G1 Y53.8157
G1 X75.35
G0 Z-1.0
G1 F300.0 Y52.6157
G1 F1200.0 X74.0 Z-1.0017
G3 X71.3 Y49.9157 Z-1.0068 I0.0 J-2.7
G1 Y27.6288 Z-1.0342
G1 X29.7 Z-1.0851
G1 Y50.0 Z-1.1125
G3 X27.3535 Y52.6768 Z-1.1173 I-2.7 J0.0
G3 X27.7 Y54.0 Z-1.119 I-2.3535 J1.3232
G1 Y187.1757 Z-1.2821
G1 X122.15 Z-1.3978
G1 Y52.6157 Z-1.5627
G1 X75.35 Z-1.62
G1 X74.0
G3 X71.3 Y49.9157 I0.0 J-2.7
G1 Y27.6288
G1 X29.7
G1 Y50.0
G3 X27.3535 Y52.6768 I-2.7 J0.0
G3 X27.7 Y54.0 I-2.3535 J1.3232
G1 Y187.1757
G1 X122.15
G1 Y52.6157
G1 X75.35
G0 Z-1.0
G1 F300.0 Y51.4157
G1 F1200.0 X74.0 Z-1.0016
G3 X72.5 Y49.9157 Z-1.0044 I0.0 J-1.5
G1 Y26.4288 Z-1.0324
G1 X28.5 Z-1.0848
G1 Y50.0 Z-1.1129
G3 X27.0 Y51.5 Z-1.1157 I-1.5 J0.0
G1 X25.0 Z-1.1181
G2 X24.75 Y51.567 Z-1.1184 I0.0 J0.5
G2 Y52.433 Z-1.1197 I0.25 J0.433
G2 X25.0 Y52.5 Z-1.12 I0.25 J-0.433
G3 X26.5 Y54.0 Z-1.1228 I0.0 J1.5
G1 Y187.8757 Z-1.2824
G3 X26.3536 Y188.5221 Z-1.2831 I-1.5 J0.0
G3 X27.0 Y188.3757 Z-1.2839 I0.6464 J1.3536
G1 X122.85 Z-1.3982
G3 X123.4964 Y188.5221 Z-1.399 I0.0 J1.5
G3 X123.35 Y187.8757 Z-1.3998 I1.3536 J-0.6464
G1 Y51.9157 Z-1.5618
G3 X123.4964 Y51.2693 Z-1.5626 I1.5 J0.0
G3 X122.85 Y51.4157 Z-1.5634 I-0.6464 J-1.3536
G1 X75.35 Z-1.62
G1 X74.0
G3 X72.5 Y49.9157 I0.0 J-1.5
G1 Y26.4288
G1 X28.5
G1 Y50.0
G3 X27.0 Y51.5 I-1.5 J0.0
G1 X25.0
G2 X24.75 Y51.567 I0.0 J0.5
G2 Y52.433 I0.25 J0.433
G2 X25.0 Y52.5 I0.25 J-0.433
G3 X26.5 Y54.0 I0.0 J1.5
G1 Y187.8757
G3 X26.3536 Y188.5221 I-1.5 J0.0
G3 X27.0 Y188.3757 I0.6464 J1.3536
G1 X122.85
G3 X123.4964 Y188.5221 I0.0 J1.5
G3 X123.35 Y187.8757 I1.3536 J-0.6464
G1 Y51.9157
G3 X123.4964 Y51.2693 I1.5 J0.0
G3 X122.85 Y51.4157 I-0.6464 J-1.3536
G1 X75.35
G0 Z3.0
M5
M30
